;======================================================
;===   cPost Standard PP for SINUMERIK 840 D        ===
;======================================================
N01 G54
N02 TRANS X0 Y0 Z10
N10 G0 G90 G40 
N20 G17
N30 ;=============== TOOL CHANGE =================
N40 ; DESC : 
N50 ;=============================================
N60 T1 M06
N70 D1
N80 G0 G90 G40 G17
N90  F0 S0 
N100 G64 SOFT
N110 S1200 M3
N120 G1 X0 Y0 Z9 F100 G94
N130 Z-1
N140 X300
N150 Y20
N160 X0
N170 Y40
N180 X300
N190 Y60
N200 X0
N210 Y80
N220 X300
N230 Y100
N240 X0
N250 Y120
N260 X300
N270 Y140
N280 X0
N290 Y160
N300 X300
N310 Y180
N320 X0
N330 Y200
N340 X300
N350 Y220
N360 X0
N370 Y240
N380 X300
N390 Y260
N400 X0
N410 Y280
N420 X300
N430 Y300
N440 X0
N450 Y320
N460 X300
N470 Y340
N480 X0
N490 Y360
N500 X300
N510 Y380
N520 X0
N530 Y400
N540 X300
N550 Y420
N560 X0
N570 Y440
N580 X300
N590 Y460
N600 X0
N610 Y480
N620 X300
N630 Y500
N640 X0
N650 Z9
N660 X-30 Y30 Z43 F80
N670 Z-7
N680 G2 X-20 Y20 I0 J-10
N690 G3 X20 Y-20 I40 J0
N700 G2 X30 Y-30 I0 J-10
N710 G0 Z-9
N720 G3 X20 Y-20 I-10 J0
N730 G2 X-20 Y20 I0 J40
N740 G3 X-30 Y30 I-10 J0
N750 G0 Z-11
N760 G2 X-20 Y20 I0 J-10
N770 G3 X20 Y-20 I40 J0
N780 G2 X30 Y-30 I0 J-10
N790 G0 Z-13
N800 G3 X20 Y-20 I-10 J0
N810 G2 X-20 Y20 I0 J40
N820 G3 X-30 Y30 I-10 J0
N830 G0 Z-15
N840 G2 X-20 Y20 I0 J-10
N850 G3 X20 Y-20 I40 J0
N860 G2 X30 Y-30 I0 J-10
N870 G0 Z-17
N880 G3 X20 Y-20 I-10 J0
N890 G2 X-20 Y20 I0 J40
N900 G3 X-30 Y30 I-10 J0
N910 G0 Z-19
N920 G2 X-20 Y20 I0 J-10
N930 G3 X20 Y-20 I40 J0
N940 G2 X30 Y-30 I0 J-10
N950 G0 Z-21
N960 G3 X20 Y-20 I-10 J0
N970 G2 X-20 Y20 I0 J40
N980 G3 X-30 Y30 I-10 J0
N990 G0 Z-23
N1000 G2 X-20 Y20 I0 J-10
N1010 G3 X20 Y-20 I40 J0
N1020 G2 X30 Y-30 I0 J-10
N1030 G0 Z-25
N1040 G3 X20 Y-20 I-10 J0
N1050 G2 X-20 Y20 I0 J40
N1060 G3 X-30 Y30 I-10 J0
N1070 G0 Z-27
N1080 G2 X-20 Y20 I0 J-10
N1090 G3 X20 Y-20 I40 J0
N1100 G2 X30 Y-30 I0 J-10
N1110 G0 Z-29
N1120 G3 X20 Y-20 I-10 J0
N1130 G2 X-20 Y20 I0 J40
N1140 G3 X-30 Y30 I-10 J0
N1150 G0 Z-31
N1160 G2 X-20 Y20 I0 J-10
N1170 G3 X20 Y-20 I40 J0
N1180 G2 X30 Y-30 I0 J-10
N1190 G0 Z-33
N1200 G3 X20 Y-20 I-10 J0
N1210 G2 X-20 Y20 I0 J40
N1220 G3 X-30 Y30 I-10 J0
N1230 G0 Z-35
N1240 G2 X-20 Y20 I0 J-10
N1250 G3 X20 Y-20 I40 J0
N1260 G2 X30 Y-30 I0 J-10
N1270 G0 Z-37
N1280 G3 X20 Y-20 I-10 J0
N1290 G2 X-20 Y20 I0 J40
N1300 G3 X-30 Y30 I-10 J0
N1310 G1 Z23
N1320 X210 Y-30 Z43
N1330 Z-7
N1340 G2 X220 Y-20 I10 J0
N1350 G3 X320 Y80 I0 J100
N1360 G2 X330 Y90 I10 J0
N1370 G0 Z-9
N1380 G3 X320 Y80 I0 J-10
N1390 G2 X220 Y-20 I-100 J0
N1400 G3 X210 Y-30 I0 J-10
N1410 G0 Z-11
N1420 G2 X220 Y-20 I10 J0
N1430 G3 X320 Y80 I0 J100
N1440 G2 X330 Y90 I10 J0
N1450 G0 Z-13
N1460 G3 X320 Y80 I0 J-10
N1470 G2 X220 Y-20 I-100 J0
N1480 G3 X210 Y-30 I0 J-10
N1490 G0 Z-15
N1500 G2 X220 Y-20 I10 J0
N1510 G3 X320 Y80 I0 J100
N1520 G2 X330 Y90 I10 J0
N1530 G0 Z-17
N1540 G3 X320 Y80 I0 J-10
N1550 G2 X220 Y-20 I-100 J0
N1560 G3 X210 Y-30 I0 J-10
N1570 G0 Z-19
N1580 G2 X220 Y-20 I10 J0
N1590 G3 X320 Y80 I0 J100
N1600 G2 X330 Y90 I10 J0
N1610 G0 Z-21
N1620 G3 X320 Y80 I0 J-10
N1630 G2 X220 Y-20 I-100 J0
N1640 G3 X210 Y-30 I0 J-10
N1650 G0 Z-23
N1660 G2 X220 Y-20 I10 J0
N1670 G3 X320 Y80 I0 J100
N1680 G2 X330 Y90 I10 J0
N1690 G0 Z-25
N1700 G3 X320 Y80 I0 J-10
N1710 G2 X220 Y-20 I-100 J0
N1720 G3 X210 Y-30 I0 J-10
N1730 G0 Z-27
N1740 G2 X220 Y-20 I10 J0
N1750 G3 X320 Y80 I0 J100
N1760 G2 X330 Y90 I10 J0
N1770 G0 Z-29
N1780 G3 X320 Y80 I0 J-10
N1790 G2 X220 Y-20 I-100 J0
N1800 G3 X210 Y-30 I0 J-10
N1810 G0 Z-31
N1820 G2 X220 Y-20 I10 J0
N1830 G3 X320 Y80 I0 J100
N1840 G2 X330 Y90 I10 J0
N1850 G0 Z-33
N1860 G3 X320 Y80 I0 J-10
N1870 G2 X220 Y-20 I-100 J0
N1880 G3 X210 Y-30 I0 J-10
N1890 G0 Z-35
N1900 G2 X220 Y-20 I10 J0
N1910 G3 X320 Y80 I0 J100
N1920 G2 X330 Y90 I10 J0
N1930 G0 Z-37
N1940 G3 X320 Y80 I0 J-10
N1950 G2 X220 Y-20 I-100 J0
N1960 G3 X210 Y-30 I0 J-10
N1970 G1 Z23
N1980 X330 Y470 Z43
N1990 Z-7
N2000 G2 X320 Y480 I0 J10
N2010 G3 X280 Y520 I-40 J0
N2020 G2 X270 Y530 I0 J10
N2030 G0 Z-9
N2040 G3 X280 Y520 I10 J0
N2050 G2 X320 Y480 I0 J-40
N2060 G3 X330 Y470 I10 J0
N2070 G0 Z-11
N2080 G2 X320 Y480 I0 J10
N2090 G3 X280 Y520 I-40 J0
N2100 G2 X270 Y530 I0 J10
N2110 G0 Z-13
N2120 G3 X280 Y520 I10 J0
N2130 G2 X320 Y480 I0 J-40
N2140 G3 X330 Y470 I10 J0
N2150 G0 Z-15
N2160 G2 X320 Y480 I0 J10
N2170 G3 X280 Y520 I-40 J0
N2180 G2 X270 Y530 I0 J10
N2190 G0 Z-17
N2200 G3 X280 Y520 I10 J0
N2210 G2 X320 Y480 I0 J-40
N2220 G3 X330 Y470 I10 J0
N2230 G0 Z-19
N2240 G2 X320 Y480 I0 J10
N2250 G3 X280 Y520 I-40 J0
N2260 G2 X270 Y530 I0 J10
N2270 G0 Z-21
N2280 G3 X280 Y520 I10 J0
N2290 G2 X320 Y480 I0 J-40
N2300 G3 X330 Y470 I10 J0
N2310 G0 Z-23
N2320 G2 X320 Y480 I0 J10
N2330 G3 X280 Y520 I-40 J0
N2340 G2 X270 Y530 I0 J10
N2350 G0 Z-25
N2360 G3 X280 Y520 I10 J0
N2370 G2 X320 Y480 I0 J-40
N2380 G3 X330 Y470 I10 J0
N2390 G0 Z-27
N2400 G2 X320 Y480 I0 J10
N2410 G3 X280 Y520 I-40 J0
N2420 G2 X270 Y530 I0 J10
N2430 G0 Z-29
N2440 G3 X280 Y520 I10 J0
N2450 G2 X320 Y480 I0 J-40
N2460 G3 X330 Y470 I10 J0
N2470 G0 Z-31
N2480 G2 X320 Y480 I0 J10
N2490 G3 X280 Y520 I-40 J0
N2500 G2 X270 Y530 I0 J10
N2510 G0 Z-33
N2520 G3 X280 Y520 I10 J0
N2530 G2 X320 Y480 I0 J-40
N2540 G3 X330 Y470 I10 J0
N2550 G0 Z-35
N2560 G2 X320 Y480 I0 J10
N2570 G3 X280 Y520 I-40 J0
N2580 G2 X270 Y530 I0 J10
N2590 G0 Z-37
N2600 G3 X280 Y520 I10 J0
N2610 G2 X320 Y480 I0 J-40
N2620 G3 X330 Y470 I10 J0
N2630 G1 Z23
N2640 X90 Y530 Z43
N2650 Z-7
N2660 G2 X80 Y520 I-10 J0
N2670 G3 X-20 Y420 I0 J-100
N2680 G2 X-30 Y410 I-10 J0
N2690 G0 Z-9
N2700 G3 X-20 Y420 I0 J10
N2710 G2 X80 Y520 I100 J0
N2720 G3 X90 Y530 I0 J10
N2730 G0 Z-11
N2740 G2 X80 Y520 I-10 J0
N2750 G3 X-20 Y420 I0 J-100
N2760 G2 X-30 Y410 I-10 J0
N2770 G0 Z-13
N2780 G3 X-20 Y420 I0 J10
N2790 G2 X80 Y520 I100 J0
N2800 G3 X90 Y530 I0 J10
N2810 G0 Z-15
N2820 G2 X80 Y520 I-10 J0
N2830 G3 X-20 Y420 I0 J-100
N2840 G2 X-30 Y410 I-10 J0
N2850 G0 Z-17
N2860 G3 X-20 Y420 I0 J10
N2870 G2 X80 Y520 I100 J0
N2880 G3 X90 Y530 I0 J10
N2890 G0 Z-19
N2900 G2 X80 Y520 I-10 J0
N2910 G3 X-20 Y420 I0 J-100
N2920 G2 X-30 Y410 I-10 J0
N2930 G0 Z-21
N2940 G3 X-20 Y420 I0 J10
N2950 G2 X80 Y520 I100 J0
N2960 G3 X90 Y530 I0 J10
N2970 G0 Z-23
N2980 G2 X80 Y520 I-10 J0
N2990 G3 X-20 Y420 I0 J-100
N3000 G2 X-30 Y410 I-10 J0
N3010 G0 Z-25
N3020 G3 X-20 Y420 I0 J10
N3030 G2 X80 Y520 I100 J0
N3040 G3 X90 Y530 I0 J10
N3050 G0 Z-27
N3060 G2 X80 Y520 I-10 J0
N3070 G3 X-20 Y420 I0 J-100
N3080 G2 X-30 Y410 I-10 J0
N3090 G0 Z-29
N3100 G3 X-20 Y420 I0 J10
N3110 G2 X80 Y520 I100 J0
N3120 G3 X90 Y530 I0 J10
N3130 G0 Z-31
N3140 G2 X80 Y520 I-10 J0
N3150 G3 X-20 Y420 I0 J-100
N3160 G2 X-30 Y410 I-10 J0
N3170 G0 Z-33
N3180 G3 X-20 Y420 I0 J10
N3190 G2 X80 Y520 I100 J0
N3200 G3 X90 Y530 I0 J10
N3210 G0 Z-35
N3220 G2 X80 Y520 I-10 J0
N3230 G3 X-20 Y420 I0 J-100
N3240 G2 X-30 Y410 I-10 J0
N3250 G0 Z-37
N3260 G3 X-20 Y420 I0 J10
N3270 G2 X80 Y520 I100 J0
N3280 G3 X90 Y530 I0 J10
N3290 G1 Z23
N3300 ;=============== TOOL CHANGE =================
N3310 ; DESC : 
N3320 ;=============================================
N3330 T2 M06
N3340 D1
N3350 G0 G90 G40 G17
N3360 G94 F80 S1200 M3
N3370 G64 SOFT
N3380 G1 X90.392 Y246.985 Z17 S1600 F250
N3390 Z-3
N3400 X93.511 Y246.649
N3410 X94.44 Y246.458
N3420 X96.875 Y245.711
N3430 X97.619 Y245.415
N3440 X100.109 Y244.187
N3450 X100.743 Y243.814
N3460 X103.287 Y242.052
N3470 X103.805 Y241.641
N3480 X106.392 Y239.288
N3490 X106.801 Y238.87
N3500 X109.411 Y235.868
N3510 X109.728 Y235.464
N3520 X112.331 Y231.764
N3530 X112.573 Y231.384
N3540 X115.13 Y226.948
N3550 X115.315 Y226.596
N3560 X117.78 Y221.403
N3570 X117.921 Y221.079
N3580 X120.246 Y215.132
N3590 X120.352 Y214.833
N3600 X122.484 Y208.158
N3610 X122.564 Y207.881
N3620 X124.452 Y200.531
N3630 X124.512 Y200.272
N3640 X126.109 Y192.329
N3650 X126.151 Y192.085
N3660 X127.415 Y183.652
N3670 X127.445 Y183.419
N3680 X128.343 Y174.624
N3690 X128.36 Y174.398
N3700 X128.87 Y165.38
N3710 X128.878 Y165.159
N3720 X128.99 Y156.067
N3730 X128.988 Y155.848
N3740 X128.704 Y146.832
N3750 X128.692 Y146.613
N3760 X128.027 Y137.817
N3770 X128.005 Y137.594
N3780 X126.983 Y129.15
N3790 X126.95 Y128.92
N3800 X125.606 Y120.942
N3810 X125.56 Y120.703
N3820 X123.933 Y113.281
N3830 X123.871 Y113.029
N3840 X122.008 Y106.232
N3850 X121.927 Y105.965
N3860 X119.873 Y99.836
N3870 X119.768 Y99.551
N3880 X117.568 Y94.111
N3890 X117.433 Y93.805
N3900 X115.131 Y89.053
N3910 X114.957 Y88.725
N3920 X112.592 Y84.644
N3930 X112.369 Y84.294
N3940 X109.972 Y80.853
N3950 X109.687 Y80.482
N3960 X107.283 Y77.64
N3970 X106.922 Y77.255
N3980 X104.529 Y74.966
N3990 X104.076 Y74.582
N4000 X101.703 Y72.799
N4010 X101.145 Y72.435
N4020 X98.793 Y71.116
N4030 X98.126 Y70.804
N4040 X95.787 Y69.913
N4050 X95.022 Y69.689
N4060 X92.682 Y69.205
N4070 X91.971 Y69.11
N4080 X90.303 Y69.009
N4090 X90 Y69
N4100 G3 X87 Y66 I0 J-3
N4110 G3 X89.871 Y63.003 I3 J0
N4120 G1 X92.728 Y63.197
N4130 X95.312 Y63.716
N4140 X97.972 Y64.603
N4150 X100.71 Y65.894
N4160 X103.527 Y67.633
N4170 X106.413 Y69.865
N4180 X109.349 Y72.633
N4190 X112.306 Y75.972
N4200 X115.25 Y79.909
N4210 X118.14 Y84.461
N4220 X120.933 Y89.632
N4230 X123.586 Y95.411
N4240 X126.054 Y101.776
N4250 X128.292 Y108.688
N4260 X130.261 Y116.096
N4270 X131.924 Y123.935
N4280 X133.25 Y132.126
N4290 X134.215 Y140.584
N4300 X134.8 Y149.215
N4310 X134.999 Y157.921
N4320 X134.809 Y166.601
N4330 X134.238 Y175.159
N4340 X133.301 Y183.503
N4350 X132.02 Y191.546
N4360 X130.424 Y199.214
N4370 X128.545 Y206.443
N4380 X126.419 Y213.18
N4390 X124.086 Y219.387
N4400 X121.584 Y225.038
N4410 X118.953 Y230.12
N4420 X116.23 Y234.628
N4430 X113.453 Y238.573
N4440 X110.651 Y241.969
N4450 X107.855 Y244.842
N4460 X105.086 Y247.22
N4470 X102.362 Y249.138
N4480 X99.692 Y250.632
N4490 X97.076 Y251.736
N4500 X94.506 Y252.482
N4510 X91.93 Y252.899
N4520 X89.755 Y253.006
N4530 X89.42 Y253.034
N4540 X86.212 Y253.408
N4550 X85.248 Y253.619
N4560 X82.809 Y254.411
N4570 X82.074 Y254.716
N4580 X79.579 Y255.994
N4590 X78.956 Y256.372
N4600 X76.407 Y258.189
N4610 X75.901 Y258.602
N4620 X73.31 Y261.016
N4630 X72.911 Y261.433
N4640 X70.3 Y264.501
N4650 X69.991 Y264.903
N4660 X67.391 Y268.673
N4670 X67.155 Y269.051
N4680 X64.605 Y273.56
N4690 X64.425 Y273.909
N4700 X61.971 Y279.176
N4710 X61.834 Y279.497
N4720 X59.526 Y285.517
N4730 X59.423 Y285.814
N4740 X57.312 Y292.557
N4750 X57.234 Y292.833
N4760 X55.372 Y300.244
N4770 X55.315 Y300.501
N4780 X53.748 Y308.497
N4790 X53.707 Y308.74
N4800 X52.477 Y317.213
N4810 X52.449 Y317.446
N4820 X51.589 Y326.265
N4830 X51.573 Y326.474
N4840 X51.145 Y334.173
N4850 G2 X51.138 Y334.45 I4.993 J0.277
N4860 G2 X56.138 Y339.45 I5 J0
N4870 G1 X106.138
N4880 G3 X108.687 Y342 I0 J2.55
N4890 G3 X106.138 Y344.55 I-2.549 J0
N4900 G1 X56.138
N4910 G2 X51.138 Y349.55 I0 J5
N4920 G2 X51.147 Y349.852 I5 J0
N4930 G1 X51.736 Y359.579
N4940 X51.756 Y359.811
N4950 X52.677 Y368.37
N4960 X52.707 Y368.598
N4970 X53.961 Y376.722
N4980 X54.003 Y376.958
N4990 X55.552 Y384.55
N5000 X55.609 Y384.798
N5010 X57.408 Y391.782
N5020 X57.483 Y392.044
N5030 X59.486 Y398.371
N5040 X59.584 Y398.651
N5050 X61.746 Y404.292
N5060 X61.872 Y404.592
N5070 X64.147 Y409.543
N5080 X64.309 Y409.864
N5090 X66.66 Y414.137
N5100 X66.867 Y414.482
N5110 X69.258 Y418.105
N5120 X69.524 Y418.47
N5130 X71.928 Y421.482
N5140 X72.265 Y421.864
N5150 X74.663 Y424.309
N5160 X75.087 Y424.696
N5170 X77.467 Y426.621
N5180 X77.993 Y426.994
N5190 X80.351 Y428.444
N5200 X80.986 Y428.774
N5210 X83.328 Y429.787
N5220 X84.066 Y430.04
N5230 X86.403 Y430.641
N5240 X87.223 Y430.781
N5250 X89.574 Y430.982
N5260 X90 Y431
N5270 G3 X93 Y434 I0 J3
N5280 G3 X90.129 Y436.997 I-3 J0
N5290 G1 X87.272 Y436.803
N5300 X84.688 Y436.284
N5310 X82.028 Y435.397
N5320 X79.29 Y434.106
N5330 X76.473 Y432.367
N5340 X73.587 Y430.135
N5350 X70.651 Y427.367
N5360 X67.694 Y424.028
N5370 X64.75 Y420.091
N5380 X61.86 Y415.539
N5390 X59.067 Y410.368
N5400 X56.414 Y404.589
N5410 X53.946 Y398.224
N5420 X51.708 Y391.312
N5430 X49.739 Y383.904
N5440 X48.076 Y376.065
N5450 X46.75 Y367.874
N5460 X45.785 Y359.416
N5470 X45.2 Y350.785
N5480 X45.001 Y342.079
N5490 X45.191 Y333.399
N5500 X45.762 Y324.841
N5510 X46.699 Y316.497
N5520 X47.98 Y308.454
N5530 X49.576 Y300.786
N5540 X51.455 Y293.557
N5550 X53.581 Y286.82
N5560 X55.914 Y280.613
N5570 X58.416 Y274.962
N5580 X61.047 Y269.88
N5590 X63.77 Y265.372
N5600 X66.547 Y261.427
N5610 X69.349 Y258.031
N5620 X72.145 Y255.158
N5630 X74.914 Y252.78
N5640 X77.638 Y250.862
N5650 X80.308 Y249.368
N5660 X82.924 Y248.264
N5670 X85.494 Y247.518
N5680 X88.07 Y247.101
N5690 X90.245 Y246.994
N5700 G0 X90.392 Y246.985 Z0
N5710 G1 Z-5
N5720 X93.511 Y246.649
N5730 X94.44 Y246.458
N5740 X96.875 Y245.711
N5750 X97.619 Y245.415
N5760 X100.109 Y244.187
N5770 X100.743 Y243.814
N5780 X103.287 Y242.052
N5790 X103.805 Y241.641
N5800 X106.392 Y239.288
N5810 X106.801 Y238.87
N5820 X109.411 Y235.868
N5830 X109.728 Y235.464
N5840 X112.331 Y231.764
N5850 X112.573 Y231.384
N5860 X115.13 Y226.948
N5870 X115.315 Y226.596
N5880 X117.78 Y221.403
N5890 X117.921 Y221.079
N5900 X120.246 Y215.132
N5910 X120.352 Y214.833
N5920 X122.484 Y208.158
N5930 X122.564 Y207.881
N5940 X124.452 Y200.531
N5950 X124.512 Y200.272
N5960 X126.109 Y192.329
N5970 X126.151 Y192.085
N5980 X127.415 Y183.652
N5990 X127.445 Y183.419
N6000 X128.343 Y174.624
N6010 X128.36 Y174.398
N6020 X128.87 Y165.38
N6030 X128.878 Y165.159
N6040 X128.99 Y156.067
N6050 X128.988 Y155.848
N6060 X128.704 Y146.832
N6070 X128.692 Y146.613
N6080 X128.027 Y137.817
N6090 X128.005 Y137.594
N6100 X126.983 Y129.15
N6110 X126.95 Y128.92
N6120 X125.606 Y120.942
N6130 X125.56 Y120.703
N6140 X123.933 Y113.281
N6150 X123.871 Y113.029
N6160 X122.008 Y106.232
N6170 X121.927 Y105.965
N6180 X119.873 Y99.836
N6190 X119.768 Y99.551
N6200 X117.568 Y94.111
N6210 X117.433 Y93.805
N6220 X115.131 Y89.053
N6230 X114.957 Y88.725
N6240 X112.592 Y84.644
N6250 X112.369 Y84.294
N6260 X109.972 Y80.853
N6270 X109.687 Y80.482
N6280 X107.283 Y77.64
N6290 X106.922 Y77.255
N6300 X104.529 Y74.966
N6310 X104.076 Y74.582
N6320 X101.703 Y72.799
N6330 X101.145 Y72.435
N6340 X98.793 Y71.116
N6350 X98.126 Y70.804
N6360 X95.787 Y69.913
N6370 X95.022 Y69.689
N6380 X92.682 Y69.205
N6390 X91.971 Y69.11
N6400 X90.303 Y69.009
N6410 X90 Y69
N6420 G3 X87 Y66 I0 J-3
N6430 G3 X89.871 Y63.003 I3 J0
N6440 G1 X92.728 Y63.197
N6450 X95.312 Y63.716
N6460 X97.972 Y64.603
N6470 X100.71 Y65.894
N6480 X103.527 Y67.633
N6490 X106.413 Y69.865
N6500 X109.349 Y72.633
N6510 X112.306 Y75.972
N6520 X115.25 Y79.909
N6530 X118.14 Y84.461
N6540 X120.933 Y89.632
N6550 X123.586 Y95.411
N6560 X126.054 Y101.776
N6570 X128.292 Y108.688
N6580 X130.261 Y116.096
N6590 X131.924 Y123.935
N6600 X133.25 Y132.126
N6610 X134.215 Y140.584
N6620 X134.8 Y149.215
N6630 X134.999 Y157.921
N6640 X134.809 Y166.601
N6650 X134.238 Y175.159
N6660 X133.301 Y183.503
N6670 X132.02 Y191.546
N6680 X130.424 Y199.214
N6690 X128.545 Y206.443
N6700 X126.419 Y213.18
N6710 X124.086 Y219.387
N6720 X121.584 Y225.038
N6730 X118.953 Y230.12
N6740 X116.23 Y234.628
N6750 X113.453 Y238.573
N6760 X110.651 Y241.969
N6770 X107.855 Y244.842
N6780 X105.086 Y247.22
N6790 X102.362 Y249.138
N6800 X99.692 Y250.632
N6810 X97.076 Y251.736
N6820 X94.506 Y252.482
N6830 X91.93 Y252.899
N6840 X89.755 Y253.006
N6850 X89.42 Y253.034
N6860 X86.212 Y253.408
N6870 X85.248 Y253.619
N6880 X82.809 Y254.411
N6890 X82.074 Y254.716
N6900 X79.579 Y255.994
N6910 X78.956 Y256.372
N6920 X76.407 Y258.189
N6930 X75.901 Y258.602
N6940 X73.31 Y261.016
N6950 X72.911 Y261.433
N6960 X70.3 Y264.501
N6970 X69.991 Y264.903
N6980 X67.391 Y268.673
N6990 X67.155 Y269.051
N7000 X64.605 Y273.56
N7010 X64.425 Y273.909
N7020 X61.971 Y279.176
N7030 X61.834 Y279.497
N7040 X59.526 Y285.517
N7050 X59.423 Y285.814
N7060 X57.312 Y292.557
N7070 X57.234 Y292.833
N7080 X55.372 Y300.244
N7090 X55.315 Y300.501
N7100 X53.748 Y308.497
N7110 X53.707 Y308.74
N7120 X52.477 Y317.213
N7130 X52.449 Y317.446
N7140 X51.589 Y326.265
N7150 X51.573 Y326.474
N7160 X51.145 Y334.173
N7170 G2 X51.138 Y334.45 I4.993 J0.277
N7180 G2 X56.138 Y339.45 I5 J0
N7190 G1 X106.138
N7200 G3 X108.687 Y342 I0 J2.55
N7210 G3 X106.138 Y344.55 I-2.549 J0
N7220 G1 X56.138
N7230 G2 X51.138 Y349.55 I0 J5
N7240 G2 X51.147 Y349.852 I5 J0
N7250 G1 X51.736 Y359.579
N7260 X51.756 Y359.811
N7270 X52.677 Y368.37
N7280 X52.707 Y368.598
N7290 X53.961 Y376.722
N7300 X54.003 Y376.958
N7310 X55.552 Y384.55
N7320 X55.609 Y384.798
N7330 X57.408 Y391.782
N7340 X57.483 Y392.044
N7350 X59.486 Y398.371
N7360 X59.584 Y398.651
N7370 X61.746 Y404.292
N7380 X61.872 Y404.592
N7390 X64.147 Y409.543
N7400 X64.309 Y409.864
N7410 X66.66 Y414.137
N7420 X66.867 Y414.482
N7430 X69.258 Y418.105
N7440 X69.524 Y418.47
N7450 X71.928 Y421.482
N7460 X72.265 Y421.864
N7470 X74.663 Y424.309
N7480 X75.087 Y424.696
N7490 X77.467 Y426.621
N7500 X77.993 Y426.994
N7510 X80.351 Y428.444
N7520 X80.986 Y428.774
N7530 X83.328 Y429.787
N7540 X84.066 Y430.04
N7550 X86.403 Y430.641
N7560 X87.223 Y430.781
N7570 X89.574 Y430.982
N7580 X90 Y431
N7590 G3 X93 Y434 I0 J3
N7600 G3 X90.129 Y436.997 I-3 J0
N7610 G1 X87.272 Y436.803
N7620 X84.688 Y436.284
N7630 X82.028 Y435.397
N7640 X79.29 Y434.106
N7650 X76.473 Y432.367
N7660 X73.587 Y430.135
N7670 X70.651 Y427.367
N7680 X67.694 Y424.028
N7690 X64.75 Y420.091
N7700 X61.86 Y415.539
N7710 X59.067 Y410.368
N7720 X56.414 Y404.589
N7730 X53.946 Y398.224
N7740 X51.708 Y391.312
N7750 X49.739 Y383.904
N7760 X48.076 Y376.065
N7770 X46.75 Y367.874
N7780 X45.785 Y359.416
N7790 X45.2 Y350.785
N7800 X45.001 Y342.079
N7810 X45.191 Y333.399
N7820 X45.762 Y324.841
N7830 X46.699 Y316.497
N7840 X47.98 Y308.454
N7850 X49.576 Y300.786
N7860 X51.455 Y293.557
N7870 X53.581 Y286.82
N7880 X55.914 Y280.613
N7890 X58.416 Y274.962
N7900 X61.047 Y269.88
N7910 X63.77 Y265.372
N7920 X66.547 Y261.427
N7930 X69.349 Y258.031
N7940 X72.145 Y255.158
N7950 X74.914 Y252.78
N7960 X77.638 Y250.862
N7970 X80.308 Y249.368
N7980 X82.924 Y248.264
N7990 X85.494 Y247.518
N8000 X88.07 Y247.101
N8010 X90.245 Y246.994
N8020 G0 X90.392 Y246.985 Z-2
N8030 G1 Z-7
N8040 X93.511 Y246.649
N8050 X94.44 Y246.458
N8060 X96.875 Y245.711
N8070 X97.619 Y245.415
N8080 X100.109 Y244.187
N8090 X100.743 Y243.814
N8100 X103.287 Y242.052
N8110 X103.805 Y241.641
N8120 X106.392 Y239.288
N8130 X106.801 Y238.87
N8140 X109.411 Y235.868
N8150 X109.728 Y235.464
N8160 X112.331 Y231.764
N8170 X112.573 Y231.384
N8180 X115.13 Y226.948
N8190 X115.315 Y226.596
N8200 X117.78 Y221.403
N8210 X117.921 Y221.079
N8220 X120.246 Y215.132
N8230 X120.352 Y214.833
N8240 X122.484 Y208.158
N8250 X122.564 Y207.881
N8260 X124.452 Y200.531
N8270 X124.512 Y200.272
N8280 X126.109 Y192.329
N8290 X126.151 Y192.085
N8300 X127.415 Y183.652
N8310 X127.445 Y183.419
N8320 X128.343 Y174.624
N8330 X128.36 Y174.398
N8340 X128.87 Y165.38
N8350 X128.878 Y165.159
N8360 X128.99 Y156.067
N8370 X128.988 Y155.848
N8380 X128.704 Y146.832
N8390 X128.692 Y146.613
N8400 X128.027 Y137.817
N8410 X128.005 Y137.594
N8420 X126.983 Y129.15
N8430 X126.95 Y128.92
N8440 X125.606 Y120.942
N8450 X125.56 Y120.703
N8460 X123.933 Y113.281
N8470 X123.871 Y113.029
N8480 X122.008 Y106.232
N8490 X121.927 Y105.965
N8500 X119.873 Y99.836
N8510 X119.768 Y99.551
N8520 X117.568 Y94.111
N8530 X117.433 Y93.805
N8540 X115.131 Y89.053
N8550 X114.957 Y88.725
N8560 X112.592 Y84.644
N8570 X112.369 Y84.294
N8580 X109.972 Y80.853
N8590 X109.687 Y80.482
N8600 X107.283 Y77.64
N8610 X106.922 Y77.255
N8620 X104.529 Y74.966
N8630 X104.076 Y74.582
N8640 X101.703 Y72.799
N8650 X101.145 Y72.435
N8660 X98.793 Y71.116
N8670 X98.126 Y70.804
N8680 X95.787 Y69.913
N8690 X95.022 Y69.689
N8700 X92.682 Y69.205
N8710 X91.971 Y69.11
N8720 X90.303 Y69.009
N8730 X90 Y69
N8740 G3 X87 Y66 I0 J-3
N8750 G3 X89.871 Y63.003 I3 J0
N8760 G1 X92.728 Y63.197
N8770 X95.312 Y63.716
N8780 X97.972 Y64.603
N8790 X100.71 Y65.894
N8800 X103.527 Y67.633
N8810 X106.413 Y69.865
N8820 X109.349 Y72.633
N8830 X112.306 Y75.972
N8840 X115.25 Y79.909
N8850 X118.14 Y84.461
N8860 X120.933 Y89.632
N8870 X123.586 Y95.411
N8880 X126.054 Y101.776
N8890 X128.292 Y108.688
N8900 X130.261 Y116.096
N8910 X131.924 Y123.935
N8920 X133.25 Y132.126
N8930 X134.215 Y140.584
N8940 X134.8 Y149.215
N8950 X134.999 Y157.921
N8960 X134.809 Y166.601
N8970 X134.238 Y175.159
N8980 X133.301 Y183.503
N8990 X132.02 Y191.546
N9000 X130.424 Y199.214
N9010 X128.545 Y206.443
N9020 X126.419 Y213.18
N9030 X124.086 Y219.387
N9040 X121.584 Y225.038
N9050 X118.953 Y230.12
N9060 X116.23 Y234.628
N9070 X113.453 Y238.573
N9080 X110.651 Y241.969
N9090 X107.855 Y244.842
N9100 X105.086 Y247.22
N9110 X102.362 Y249.138
N9120 X99.692 Y250.632
N9130 X97.076 Y251.736
N9140 X94.506 Y252.482
N9150 X91.93 Y252.899
N9160 X89.755 Y253.006
N9170 X89.42 Y253.034
N9180 X86.212 Y253.408
N9190 X85.248 Y253.619
N9200 X82.809 Y254.411
N9210 X82.074 Y254.716
N9220 X79.579 Y255.994
N9230 X78.956 Y256.372
N9240 X76.407 Y258.189
N9250 X75.901 Y258.602
N9260 X73.31 Y261.016
N9270 X72.911 Y261.433
N9280 X70.3 Y264.501
N9290 X69.991 Y264.903
N9300 X67.391 Y268.673
N9310 X67.155 Y269.051
N9320 X64.605 Y273.56
N9330 X64.425 Y273.909
N9340 X61.971 Y279.176
N9350 X61.834 Y279.497
N9360 X59.526 Y285.517
N9370 X59.423 Y285.814
N9380 X57.312 Y292.557
N9390 X57.234 Y292.833
N9400 X55.372 Y300.244
N9410 X55.315 Y300.501
N9420 X53.748 Y308.497
N9430 X53.707 Y308.74
N9440 X52.477 Y317.213
N9450 X52.449 Y317.446
N9460 X51.589 Y326.265
N9470 X51.573 Y326.474
N9480 X51.145 Y334.173
N9490 G2 X51.138 Y334.45 I4.993 J0.277
N9500 G2 X56.138 Y339.45 I5 J0
N9510 G1 X106.138
N9520 G3 X108.687 Y342 I0 J2.55
N9530 G3 X106.138 Y344.55 I-2.549 J0
N9540 G1 X56.138
N9550 G2 X51.138 Y349.55 I0 J5
N9560 G2 X51.147 Y349.852 I5 J0
N9570 G1 X51.736 Y359.579
N9580 X51.756 Y359.811
N9590 X52.677 Y368.37
N9600 X52.707 Y368.598
N9610 X53.961 Y376.722
N9620 X54.003 Y376.958
N9630 X55.552 Y384.55
N9640 X55.609 Y384.798
N9650 X57.408 Y391.782
N9660 X57.483 Y392.044
N9670 X59.486 Y398.371
N9680 X59.584 Y398.651
N9690 X61.746 Y404.292
N9700 X61.872 Y404.592
N9710 X64.147 Y409.543
N9720 X64.309 Y409.864
N9730 X66.66 Y414.137
N9740 X66.867 Y414.482
N9750 X69.258 Y418.105
N9760 X69.524 Y418.47
N9770 X71.928 Y421.482
N9780 X72.265 Y421.864
N9790 X74.663 Y424.309
N9800 X75.087 Y424.696
N9810 X77.467 Y426.621
N9820 X77.993 Y426.994
N9830 X80.351 Y428.444
N9840 X80.986 Y428.774
N9850 X83.328 Y429.787
N9860 X84.066 Y430.04
N9870 X86.403 Y430.641
N9880 X87.223 Y430.781
N9890 X89.574 Y430.982
N9900 X90 Y431
N9910 G3 X93 Y434 I0 J3
N9920 G3 X90.129 Y436.997 I-3 J0
N9930 G1 X87.272 Y436.803
N9940 X84.688 Y436.284
N9950 X82.028 Y435.397
N9960 X79.29 Y434.106
N9970 X76.473 Y432.367
N9980 X73.587 Y430.135
N9990 X70.651 Y427.367
N10000 X67.694 Y424.028
N10010 X64.75 Y420.091
N10020 X61.86 Y415.539
N10030 X59.067 Y410.368
N10040 X56.414 Y404.589
N10050 X53.946 Y398.224
N10060 X51.708 Y391.312
N10070 X49.739 Y383.904
N10080 X48.076 Y376.065
N10090 X46.75 Y367.874
N10100 X45.785 Y359.416
N10110 X45.2 Y350.785
N10120 X45.001 Y342.079
N10130 X45.191 Y333.399
N10140 X45.762 Y324.841
N10150 X46.699 Y316.497
N10160 X47.98 Y308.454
N10170 X49.576 Y300.786
N10180 X51.455 Y293.557
N10190 X53.581 Y286.82
N10200 X55.914 Y280.613
N10210 X58.416 Y274.962
N10220 X61.047 Y269.88
N10230 X63.77 Y265.372
N10240 X66.547 Y261.427
N10250 X69.349 Y258.031
N10260 X72.145 Y255.158
N10270 X74.914 Y252.78
N10280 X77.638 Y250.862
N10290 X80.308 Y249.368
N10300 X82.924 Y248.264
N10310 X85.494 Y247.518
N10320 X88.07 Y247.101
N10330 X90.245 Y246.994
N10340 G0 X90.392 Y246.985 Z-4
N10350 G1 Z-9
N10360 X93.511 Y246.649
N10370 X94.44 Y246.458
N10380 X96.875 Y245.711
N10390 X97.619 Y245.415
N10400 X100.109 Y244.187
N10410 X100.743 Y243.814
N10420 X103.287 Y242.052
N10430 X103.805 Y241.641
N10440 X106.392 Y239.288
N10450 X106.801 Y238.87
N10460 X109.411 Y235.868
N10470 X109.728 Y235.464
N10480 X112.331 Y231.764
N10490 X112.573 Y231.384
N10500 X115.13 Y226.948
N10510 X115.315 Y226.596
N10520 X117.78 Y221.403
N10530 X117.921 Y221.079
N10540 X120.246 Y215.132
N10550 X120.352 Y214.833
N10560 X122.484 Y208.158
N10570 X122.564 Y207.881
N10580 X124.452 Y200.531
N10590 X124.512 Y200.272
N10600 X126.109 Y192.329
N10610 X126.151 Y192.085
N10620 X127.415 Y183.652
N10630 X127.445 Y183.419
N10640 X128.343 Y174.624
N10650 X128.36 Y174.398
N10660 X128.87 Y165.38
N10670 X128.878 Y165.159
N10680 X128.99 Y156.067
N10690 X128.988 Y155.848
N10700 X128.704 Y146.832
N10710 X128.692 Y146.613
N10720 X128.027 Y137.817
N10730 X128.005 Y137.594
N10740 X126.983 Y129.15
N10750 X126.95 Y128.92
N10760 X125.606 Y120.942
N10770 X125.56 Y120.703
N10780 X123.933 Y113.281
N10790 X123.871 Y113.029
N10800 X122.008 Y106.232
N10810 X121.927 Y105.965
N10820 X119.873 Y99.836
N10830 X119.768 Y99.551
N10840 X117.568 Y94.111
N10850 X117.433 Y93.805
N10860 X115.131 Y89.053
N10870 X114.957 Y88.725
N10880 X112.592 Y84.644
N10890 X112.369 Y84.294
N10900 X109.972 Y80.853
N10910 X109.687 Y80.482
N10920 X107.283 Y77.64
N10930 X106.922 Y77.255
N10940 X104.529 Y74.966
N10950 X104.076 Y74.582
N10960 X101.703 Y72.799
N10970 X101.145 Y72.435
N10980 X98.793 Y71.116
N10990 X98.126 Y70.804
N11000 X95.787 Y69.913
N11010 X95.022 Y69.689
N11020 X92.682 Y69.205
N11030 X91.971 Y69.11
N11040 X90.303 Y69.009
N11050 X90 Y69
N11060 G3 X87 Y66 I0 J-3
N11070 G3 X89.871 Y63.003 I3 J0
N11080 G1 X92.728 Y63.197
N11090 X95.312 Y63.716
N11100 X97.972 Y64.603
N11110 X100.71 Y65.894
N11120 X103.527 Y67.633
N11130 X106.413 Y69.865
N11140 X109.349 Y72.633
N11150 X112.306 Y75.972
N11160 X115.25 Y79.909
N11170 X118.14 Y84.461
N11180 X120.933 Y89.632
N11190 X123.586 Y95.411
N11200 X126.054 Y101.776
N11210 X128.292 Y108.688
N11220 X130.261 Y116.096
N11230 X131.924 Y123.935
N11240 X133.25 Y132.126
N11250 X134.215 Y140.584
N11260 X134.8 Y149.215
N11270 X134.999 Y157.921
N11280 X134.809 Y166.601
N11290 X134.238 Y175.159
N11300 X133.301 Y183.503
N11310 X132.02 Y191.546
N11320 X130.424 Y199.214
N11330 X128.545 Y206.443
N11340 X126.419 Y213.18
N11350 X124.086 Y219.387
N11360 X121.584 Y225.038
N11370 X118.953 Y230.12
N11380 X116.23 Y234.628
N11390 X113.453 Y238.573
N11400 X110.651 Y241.969
N11410 X107.855 Y244.842
N11420 X105.086 Y247.22
N11430 X102.362 Y249.138
N11440 X99.692 Y250.632
N11450 X97.076 Y251.736
N11460 X94.506 Y252.482
N11470 X91.93 Y252.899
N11480 X89.755 Y253.006
N11490 X89.42 Y253.034
N11500 X86.212 Y253.408
N11510 X85.248 Y253.619
N11520 X82.809 Y254.411
N11530 X82.074 Y254.716
N11540 X79.579 Y255.994
N11550 X78.956 Y256.372
N11560 X76.407 Y258.189
N11570 X75.901 Y258.602
N11580 X73.31 Y261.016
N11590 X72.911 Y261.433
N11600 X70.3 Y264.501
N11610 X69.991 Y264.903
N11620 X67.391 Y268.673
N11630 X67.155 Y269.051
N11640 X64.605 Y273.56
N11650 X64.425 Y273.909
N11660 X61.971 Y279.176
N11670 X61.834 Y279.497
N11680 X59.526 Y285.517
N11690 X59.423 Y285.814
N11700 X57.312 Y292.557
N11710 X57.234 Y292.833
N11720 X55.372 Y300.244
N11730 X55.315 Y300.501
N11740 X53.748 Y308.497
N11750 X53.707 Y308.74
N11760 X52.477 Y317.213
N11770 X52.449 Y317.446
N11780 X51.589 Y326.265
N11790 X51.573 Y326.474
N11800 X51.145 Y334.173
N11810 G2 X51.138 Y334.45 I4.993 J0.277
N11820 G2 X56.138 Y339.45 I5 J0
N11830 G1 X106.138
N11840 G3 X108.687 Y342 I0 J2.55
N11850 G3 X106.138 Y344.55 I-2.549 J0
N11860 G1 X56.138
N11870 G2 X51.138 Y349.55 I0 J5
N11880 G2 X51.147 Y349.852 I5 J0
N11890 G1 X51.736 Y359.579
N11900 X51.756 Y359.811
N11910 X52.677 Y368.37
N11920 X52.707 Y368.598
N11930 X53.961 Y376.722
N11940 X54.003 Y376.958
N11950 X55.552 Y384.55
N11960 X55.609 Y384.798
N11970 X57.408 Y391.782
N11980 X57.483 Y392.044
N11990 X59.486 Y398.371
N12000 X59.584 Y398.651
N12010 X61.746 Y404.292
N12020 X61.872 Y404.592
N12030 X64.147 Y409.543
N12040 X64.309 Y409.864
N12050 X66.66 Y414.137
N12060 X66.867 Y414.482
N12070 X69.258 Y418.105
N12080 X69.524 Y418.47
N12090 X71.928 Y421.482
N12100 X72.265 Y421.864
N12110 X74.663 Y424.309
N12120 X75.087 Y424.696
N12130 X77.467 Y426.621
N12140 X77.993 Y426.994
N12150 X80.351 Y428.444
N12160 X80.986 Y428.774
N12170 X83.328 Y429.787
N12180 X84.066 Y430.04
N12190 X86.403 Y430.641
N12200 X87.223 Y430.781
N12210 X89.574 Y430.982
N12220 X90 Y431
N12230 G3 X93 Y434 I0 J3
N12240 G3 X90.129 Y436.997 I-3 J0
N12250 G1 X87.272 Y436.803
N12260 X84.688 Y436.284
N12270 X82.028 Y435.397
N12280 X79.29 Y434.106
N12290 X76.473 Y432.367
N12300 X73.587 Y430.135
N12310 X70.651 Y427.367
N12320 X67.694 Y424.028
N12330 X64.75 Y420.091
N12340 X61.86 Y415.539
N12350 X59.067 Y410.368
N12360 X56.414 Y404.589
N12370 X53.946 Y398.224
N12380 X51.708 Y391.312
N12390 X49.739 Y383.904
N12400 X48.076 Y376.065
N12410 X46.75 Y367.874
N12420 X45.785 Y359.416
N12430 X45.2 Y350.785
N12440 X45.001 Y342.079
N12450 X45.191 Y333.399
N12460 X45.762 Y324.841
N12470 X46.699 Y316.497
N12480 X47.98 Y308.454
N12490 X49.576 Y300.786
N12500 X51.455 Y293.557
N12510 X53.581 Y286.82
N12520 X55.914 Y280.613
N12530 X58.416 Y274.962
N12540 X61.047 Y269.88
N12550 X63.77 Y265.372
N12560 X66.547 Y261.427
N12570 X69.349 Y258.031
N12580 X72.145 Y255.158
N12590 X74.914 Y252.78
N12600 X77.638 Y250.862
N12610 X80.308 Y249.368
N12620 X82.924 Y248.264
N12630 X85.494 Y247.518
N12640 X88.07 Y247.101
N12650 X90.245 Y246.994
N12660 G0 X90.392 Y246.985 Z-6
N12670 G1 Z-11
N12680 X93.511 Y246.649
N12690 X94.44 Y246.458
N12700 X96.875 Y245.711
N12710 X97.619 Y245.415
N12720 X100.109 Y244.187
N12730 X100.743 Y243.814
N12740 X103.287 Y242.052
N12750 X103.805 Y241.641
N12760 X106.392 Y239.288
N12770 X106.801 Y238.87
N12780 X109.411 Y235.868
N12790 X109.728 Y235.464
N12800 X112.331 Y231.764
N12810 X112.573 Y231.384
N12820 X115.13 Y226.948
N12830 X115.315 Y226.596
N12840 X117.78 Y221.403
N12850 X117.921 Y221.079
N12860 X120.246 Y215.132
N12870 X120.352 Y214.833
N12880 X122.484 Y208.158
N12890 X122.564 Y207.881
N12900 X124.452 Y200.531
N12910 X124.512 Y200.272
N12920 X126.109 Y192.329
N12930 X126.151 Y192.085
N12940 X127.415 Y183.652
N12950 X127.445 Y183.419
N12960 X128.343 Y174.624
N12970 X128.36 Y174.398
N12980 X128.87 Y165.38
N12990 X128.878 Y165.159
N13000 X128.99 Y156.067
N13010 X128.988 Y155.848
N13020 X128.704 Y146.832
N13030 X128.692 Y146.613
N13040 X128.027 Y137.817
N13050 X128.005 Y137.594
N13060 X126.983 Y129.15
N13070 X126.95 Y128.92
N13080 X125.606 Y120.942
N13090 X125.56 Y120.703
N13100 X123.933 Y113.281
N13110 X123.871 Y113.029
N13120 X122.008 Y106.232
N13130 X121.927 Y105.965
N13140 X119.873 Y99.836
N13150 X119.768 Y99.551
N13160 X117.568 Y94.111
N13170 X117.433 Y93.805
N13180 X115.131 Y89.053
N13190 X114.957 Y88.725
N13200 X112.592 Y84.644
N13210 X112.369 Y84.294
N13220 X109.972 Y80.853
N13230 X109.687 Y80.482
N13240 X107.283 Y77.64
N13250 X106.922 Y77.255
N13260 X104.529 Y74.966
N13270 X104.076 Y74.582
N13280 X101.703 Y72.799
N13290 X101.145 Y72.435
N13300 X98.793 Y71.116
N13310 X98.126 Y70.804
N13320 X95.787 Y69.913
N13330 X95.022 Y69.689
N13340 X92.682 Y69.205
N13350 X91.971 Y69.11
N13360 X90.303 Y69.009
N13370 X90 Y69
N13380 G3 X87 Y66 I0 J-3
N13390 G3 X89.871 Y63.003 I3 J0
N13400 G1 X92.728 Y63.197
N13410 X95.312 Y63.716
N13420 X97.972 Y64.603
N13430 X100.71 Y65.894
N13440 X103.527 Y67.633
N13450 X106.413 Y69.865
N13460 X109.349 Y72.633
N13470 X112.306 Y75.972
N13480 X115.25 Y79.909
N13490 X118.14 Y84.461
N13500 X120.933 Y89.632
N13510 X123.586 Y95.411
N13520 X126.054 Y101.776
N13530 X128.292 Y108.688
N13540 X130.261 Y116.096
N13550 X131.924 Y123.935
N13560 X133.25 Y132.126
N13570 X134.215 Y140.584
N13580 X134.8 Y149.215
N13590 X134.999 Y157.921
N13600 X134.809 Y166.601
N13610 X134.238 Y175.159
N13620 X133.301 Y183.503
N13630 X132.02 Y191.546
N13640 X130.424 Y199.214
N13650 X128.545 Y206.443
N13660 X126.419 Y213.18
N13670 X124.086 Y219.387
N13680 X121.584 Y225.038
N13690 X118.953 Y230.12
N13700 X116.23 Y234.628
N13710 X113.453 Y238.573
N13720 X110.651 Y241.969
N13730 X107.855 Y244.842
N13740 X105.086 Y247.22
N13750 X102.362 Y249.138
N13760 X99.692 Y250.632
N13770 X97.076 Y251.736
N13780 X94.506 Y252.482
N13790 X91.93 Y252.899
N13800 X89.755 Y253.006
N13810 X89.42 Y253.034
N13820 X86.212 Y253.408
N13830 X85.248 Y253.619
N13840 X82.809 Y254.411
N13850 X82.074 Y254.716
N13860 X79.579 Y255.994
N13870 X78.956 Y256.372
N13880 X76.407 Y258.189
N13890 X75.901 Y258.602
N13900 X73.31 Y261.016
N13910 X72.911 Y261.433
N13920 X70.3 Y264.501
N13930 X69.991 Y264.903
N13940 X67.391 Y268.673
N13950 X67.155 Y269.051
N13960 X64.605 Y273.56
N13970 X64.425 Y273.909
N13980 X61.971 Y279.176
N13990 X61.834 Y279.497
N14000 X59.526 Y285.517
N14010 X59.423 Y285.814
N14020 X57.312 Y292.557
N14030 X57.234 Y292.833
N14040 X55.372 Y300.244
N14050 X55.315 Y300.501
N14060 X53.748 Y308.497
N14070 X53.707 Y308.74
N14080 X52.477 Y317.213
N14090 X52.449 Y317.446
N14100 X51.589 Y326.265
N14110 X51.573 Y326.474
N14120 X51.145 Y334.173
N14130 G2 X51.138 Y334.45 I4.993 J0.277
N14140 G2 X56.138 Y339.45 I5 J0
N14150 G1 X106.138
N14160 G3 X108.687 Y342 I0 J2.55
N14170 G3 X106.138 Y344.55 I-2.549 J0
N14180 G1 X56.138
N14190 G2 X51.138 Y349.55 I0 J5
N14200 G2 X51.147 Y349.852 I5 J0
N14210 G1 X51.736 Y359.579
N14220 X51.756 Y359.811
N14230 X52.677 Y368.37
N14240 X52.707 Y368.598
N14250 X53.961 Y376.722
N14260 X54.003 Y376.958
N14270 X55.552 Y384.55
N14280 X55.609 Y384.798
N14290 X57.408 Y391.782
N14300 X57.483 Y392.044
N14310 X59.486 Y398.371
N14320 X59.584 Y398.651
N14330 X61.746 Y404.292
N14340 X61.872 Y404.592
N14350 X64.147 Y409.543
N14360 X64.309 Y409.864
N14370 X66.66 Y414.137
N14380 X66.867 Y414.482
N14390 X69.258 Y418.105
N14400 X69.524 Y418.47
N14410 X71.928 Y421.482
N14420 X72.265 Y421.864
N14430 X74.663 Y424.309
N14440 X75.087 Y424.696
N14450 X77.467 Y426.621
N14460 X77.993 Y426.994
N14470 X80.351 Y428.444
N14480 X80.986 Y428.774
N14490 X83.328 Y429.787
N14500 X84.066 Y430.04
N14510 X86.403 Y430.641
N14520 X87.223 Y430.781
N14530 X89.574 Y430.982
N14540 X90 Y431
N14550 G3 X93 Y434 I0 J3
N14560 G3 X90.129 Y436.997 I-3 J0
N14570 G1 X87.272 Y436.803
N14580 X84.688 Y436.284
N14590 X82.028 Y435.397
N14600 X79.29 Y434.106
N14610 X76.473 Y432.367
N14620 X73.587 Y430.135
N14630 X70.651 Y427.367
N14640 X67.694 Y424.028
N14650 X64.75 Y420.091
N14660 X61.86 Y415.539
N14670 X59.067 Y410.368
N14680 X56.414 Y404.589
N14690 X53.946 Y398.224
N14700 X51.708 Y391.312
N14710 X49.739 Y383.904
N14720 X48.076 Y376.065
N14730 X46.75 Y367.874
N14740 X45.785 Y359.416
N14750 X45.2 Y350.785
N14760 X45.001 Y342.079
N14770 X45.191 Y333.399
N14780 X45.762 Y324.841
N14790 X46.699 Y316.497
N14800 X47.98 Y308.454
N14810 X49.576 Y300.786
N14820 X51.455 Y293.557
N14830 X53.581 Y286.82
N14840 X55.914 Y280.613
N14850 X58.416 Y274.962
N14860 X61.047 Y269.88
N14870 X63.77 Y265.372
N14880 X66.547 Y261.427
N14890 X69.349 Y258.031
N14900 X72.145 Y255.158
N14910 X74.914 Y252.78
N14920 X77.638 Y250.862
N14930 X80.308 Y249.368
N14940 X82.924 Y248.264
N14950 X85.494 Y247.518
N14960 X88.07 Y247.101
N14970 X90.245 Y246.994
N14980 X90.392 Y246.985 Z9
N14990 ;=============== TOOL CHANGE =================
N15000 ; DESC : 
N15010 ;=============================================
N15020 T3 M06
N15030 D1
N15040 G0 G90 G40 G17
N15050 G94 F250 S1600 M3
N15060 G64 SOFT
N15070 G1 X4 Y119.588 Z18 S2400 F200
N15080 Z-2
N15090 G2 X6.218 Y122.549 I5.677 J-1.941
N15100 G2 X4 Y125.51 I3.459 J4.902
N15110 G1 Y119.588
N15120 X3 Y119.586
N15130 X2 Y119.584
N15140 Y20
N15150 G3 X5.762 Y8.988 I18 J0
N15160 G1 X5.677 Y9.804
N15170 Y39.216
N15180 G2 X9.677 Y43.216 I4 J0
N15190 G1 X19.355
N15200 G2 X23.355 Y39.216 I0 J-4
N15210 G1 Y23.608
N15220 X25.032
N15230 Y39.216
N15240 G2 X29.032 Y43.216 I4 J0
N15250 G1 X58.065
N15260 G2 X62.065 Y39.216 I0 J-4
N15270 G1 Y23.608
N15280 X63.742
N15290 Y45.02
N15300 X9.677
N15310 G2 X5.677 Y49.02 I0 J4
N15320 G1 Y117.647
N15330 G2 X9.677 Y121.647 I4 J0
N15340 G1 X19.355
N15350 G2 X23.355 Y117.647 I0 J-4
N15360 G1 Y102.039
N15370 X38.71
N15380 G2 X42.71 Y98.039 I0 J-4
N15390 G1 Y88.235
N15400 G2 X38.71 Y84.235 I-4 J0
N15410 G1 X23.355
N15420 Y82.431
N15430 X44.387
N15440 Y98.039
N15450 G2 X48.387 Y102.039 I4 J0
N15460 G1 X102.452
N15470 Y117.647
N15480 G2 X106.452 Y121.647 I4 J0
N15490 G1 X116.129
N15500 G2 X120.129 Y117.647 I0 J-4
N15510 G1 Y82.431
N15520 X121.806
N15530 Y98.039
N15540 G2 X125.806 Y102.039 I4 J0
N15550 G1 X193.548
N15560 G2 X197.548 Y98.039 I0 J-4
N15570 G1 Y82.431
N15580 X212.903
N15590 G2 X216.903 Y78.431 I0 J-4
N15600 G1 Y68.627
N15610 G2 X212.903 Y64.627 I-4 J0
N15620 G1 X183.871
N15630 G2 X179.871 Y68.627 I0 J4
N15640 G1 Y84.235
N15650 X178.194
N15660 Y49.02
N15670 G2 X174.194 Y45.02 I-4 J0
N15680 G1 X158.839
N15690 Y23.608
N15700 X160.516
N15710 Y39.216
N15720 G2 X164.516 Y43.216 I4 J0
N15730 G1 X179.871
N15740 Y58.824
N15750 G2 X183.871 Y62.824 I4 J0
N15760 G1 X218.581
N15770 Y84.235
N15780 X203.226
N15790 G2 X199.226 Y88.235 I0 J4
N15800 G1 Y103.843
N15810 X183.871
N15820 G2 X179.871 Y107.843 I0 J4
N15830 G1 Y123.451
N15840 X178.194
N15850 Y107.843
N15860 G2 X174.194 Y103.843 I-4 J0
N15870 G1 X125.806
N15880 G2 X121.806 Y107.843 I0 J4
N15890 G1 Y123.451
N15900 X100.774
N15910 Y107.843
N15920 G2 X96.774 Y103.843 I-4 J0
N15930 G1 X29.032
N15940 G2 X25.032 Y107.843 I0 J4
N15950 G1 Y123.451
N15960 X9.677
N15970 G2 X5.677 Y127.451 I0 J4
N15980 G1 Y196.078
N15990 G2 X9.677 Y200.078 I4 J0
N16000 G1 X25.032
N16010 Y241.098
N16020 X23.355
N16030 Y205.882
N16040 G2 X19.355 Y201.882 I-4 J0
N16050 G1 X9.677
N16060 G2 X5.677 Y205.882 I0 J4
N16070 G1 Y254.902
N16080 G2 X9.677 Y258.902 I4 J0
N16090 G1 X38.71
N16100 G2 X42.71 Y254.902 I0 J-4
N16110 G1 Y186.275
N16120 G2 X38.71 Y182.275 I-4 J0
N16130 G1 X23.355
N16140 Y160.863
N16150 X25.032
N16160 Y176.471
N16170 G2 X29.032 Y180.471 I4 J0
N16180 G1 X44.387
N16190 Y280.314
N16200 X42.71
N16210 Y264.706
N16220 G2 X38.71 Y260.706 I-4 J0
N16230 G1 X9.677
N16240 G2 X5.677 Y264.706 I0 J4
N16250 G1 Y372.549
N16260 G2 X9.677 Y376.549 I4 J0
N16270 G1 X44.387
N16280 Y392.157
N16290 G2 X48.387 Y396.157 I4 J0
N16300 G1 X63.742
N16310 Y397.961
N16320 X29.032
N16330 G2 X25.032 Y401.961 I0 J4
N16340 G1 Y437.176
N16350 X23.355
N16360 Y396.157
N16370 X38.71
N16380 G2 X42.71 Y392.157 I0 J-4
N16390 G1 Y382.353
N16400 G2 X38.71 Y378.353 I-4 J0
N16410 G1 X9.677
N16420 G2 X5.677 Y382.353 I0 J4
N16430 G1 Y443.661
N16440 G3 X2 Y420.014 I74.191 J-23.647
N16450 G3 X2 Y420 I77.868 J0
N16460 G1 Y119.584
N16470 X1 Y119.583
N16480 X0 Y119.581
N16490 Y20
N16500 G3 X20 Y0 I20 J0
N16510 G1 X220
N16520 G3 X220.021 Y0 I0.021 J79.837
N16530 G3 X254.447 Y7.804 I0 J79.837
N16540 G1 X222.581
N16550 G2 X220.581 Y9.804 I0 J2
N16560 G1 Y19.608
N16570 G2 X222.581 Y21.608 I2 J0
N16580 G1 X259.29
N16590 Y39.216
N16600 G2 X261.29 Y41.216 I2 J0
N16610 G1 X278.645
N16620 Y66.627
N16630 X272.968
N16640 Y49.02
N16650 G2 X270.968 Y47.02 I-2 J0
N16660 G1 X253.613
N16670 Y29.412
N16680 G2 X251.613 Y27.412 I-2 J0
N16690 G1 X214.903
N16700 Y9.804
N16710 G2 X212.903 Y7.804 I-2 J0
N16720 G1 X145.161
N16730 G2 X143.161 Y9.804 I0 J2
N16740 G1 Y58.824
N16750 G2 X145.161 Y60.824 I2 J0
N16760 G1 X162.516
N16770 Y86.235
N16780 X137.484
N16790 Y80.431
N16800 X154.839
N16810 G2 X156.839 Y78.431 I0 J-2
N16820 G1 Y68.627
N16830 G2 X154.839 Y66.627 I-2 J0
N16840 G1 X106.452
N16850 G2 X104.452 Y68.627 I0 J2
N16860 G1 Y86.235
N16870 X60.065
N16880 Y68.627
N16890 G2 X58.065 Y66.627 I-2 J0
N16900 G1 X21.355
N16910 Y60.824
N16920 X77.419
N16930 G2 X79.419 Y58.824 I0 J-2
N16940 G1 Y21.608
N16950 X85.097
N16960 Y39.216
N16970 G2 X87.097 Y41.216 I2 J0
N16980 G1 X123.806
N16990 Y47.02
N17000 X87.097
N17010 G2 X85.097 Y49.02 I0 J2
N17020 G1 Y66.627
N17030 X67.742
N17040 G2 X65.742 Y68.627 I0 J2
N17050 G1 Y78.431
N17060 G2 X67.742 Y80.431 I2 J0
N17070 G1 X96.774
N17080 G2 X98.774 Y78.431 I0 J-2
N17090 G1 Y60.824
N17100 X135.484
N17110 G2 X137.484 Y58.824 I0 J-2
N17120 G1 Y9.804
N17130 G2 X135.484 Y7.804 I-2 J0
N17140 G1 X106.452
N17150 G2 X104.452 Y9.804 I0 J2
N17160 G1 Y19.608
N17170 G2 X106.452 Y21.608 I2 J0
N17180 G1 X123.806
N17190 Y27.412
N17200 X98.774
N17210 Y9.804
N17220 G2 X96.774 Y7.804 I-2 J0
N17230 G1 X48.387
N17240 G2 X46.387 Y9.804 I0 J2
N17250 G1 Y27.412
N17260 X40.71
N17270 Y9.804
N17280 G2 X38.71 Y7.804 I-2 J0
N17290 G1 X9.677
N17300 G2 X7.677 Y9.804 I0 J2
N17310 G1 Y39.216
N17320 G2 X9.677 Y41.216 I2 J0
N17330 G1 X19.355
N17340 G2 X21.355 Y39.216 I0 J-2
N17350 G1 Y21.608
N17360 X27.032
N17370 Y39.216
N17380 G2 X29.032 Y41.216 I2 J0
N17390 G1 X58.065
N17400 G2 X60.065 Y39.216 I0 J-2
N17410 G1 Y21.608
N17420 X65.742
N17430 Y47.02
N17440 X9.677
N17450 G2 X7.677 Y49.02 I0 J2
N17460 G1 Y117.647
N17470 G2 X9.677 Y119.647 I2 J0
N17480 G1 X19.355
N17490 G2 X21.355 Y117.647 I0 J-2
N17500 G1 Y100.039
N17510 X38.71
N17520 G2 X40.71 Y98.039 I0 J-2
N17530 G1 Y88.235
N17540 G2 X38.71 Y86.235 I-2 J0
N17550 G1 X21.355
N17560 Y80.431
N17570 X46.387
N17580 Y98.039
N17590 G2 X48.387 Y100.039 I2 J0
N17600 G1 X104.452
N17610 Y117.647
N17620 G2 X106.452 Y119.647 I2 J0
N17630 G1 X116.129
N17640 G2 X118.129 Y117.647 I0 J-2
N17650 G1 Y80.431
N17660 X123.806
N17670 Y98.039
N17680 G2 X125.806 Y100.039 I2 J0
N17690 G1 X193.548
N17700 G2 X195.548 Y98.039 I0 J-2
N17710 G1 Y80.431
N17720 X212.903
N17730 G2 X214.903 Y78.431 I0 J-2
N17740 G1 Y68.627
N17750 G2 X212.903 Y66.627 I-2 J0
N17760 G1 X183.871
N17770 G2 X181.871 Y68.627 I0 J2
N17780 G1 Y86.235
N17790 X176.194
N17800 Y49.02
N17810 G2 X174.194 Y47.02 I-2 J0
N17820 G1 X156.839
N17830 Y21.608
N17840 X162.516
N17850 Y39.216
N17860 G2 X164.516 Y41.216 I2 J0
N17870 G1 X181.871
N17880 Y58.824
N17890 G2 X183.871 Y60.824 I2 J0
N17900 G1 X220.581
N17910 Y86.235
N17920 X203.226
N17930 G2 X201.226 Y88.235 I0 J2
N17940 G1 Y105.843
N17950 X183.871
N17960 G2 X181.871 Y107.843 I0 J2
N17970 G1 Y125.451
N17980 X176.194
N17990 Y107.843
N18000 G2 X174.194 Y105.843 I-2 J0
N18010 G1 X125.806
N18020 G2 X123.806 Y107.843 I0 J2
N18030 G1 Y125.451
N18040 X98.774
N18050 Y107.843
N18060 G2 X96.774 Y105.843 I-2 J0
N18070 G1 X29.032
N18080 G2 X27.032 Y107.843 I0 J2
N18090 G1 Y125.451
N18100 X9.677
N18110 G2 X7.677 Y127.451 I0 J2
N18120 G1 Y196.078
N18130 G2 X9.677 Y198.078 I2 J0
N18140 G1 X27.032
N18150 Y243.098
N18160 X21.355
N18170 Y205.882
N18180 G2 X19.355 Y203.882 I-2 J0
N18190 G1 X9.677
N18200 G2 X7.677 Y205.882 I0 J2
N18210 G1 Y254.902
N18220 G2 X9.677 Y256.902 I2 J0
N18230 G1 X38.71
N18240 G2 X40.71 Y254.902 I0 J-2
N18250 G1 Y186.275
N18260 G2 X38.71 Y184.275 I-2 J0
N18270 G1 X21.355
N18280 Y158.863
N18290 X27.032
N18300 Y176.471
N18310 G2 X29.032 Y178.471 I2 J0
N18320 G1 X46.387
N18330 Y282.314
N18340 X40.71
N18350 Y264.706
N18360 G2 X38.71 Y262.706 I-2 J0
N18370 G1 X9.677
N18380 G2 X7.677 Y264.706 I0 J2
N18390 G1 Y372.549
N18400 G2 X9.677 Y374.549 I2 J0
N18410 G1 X46.387
N18420 Y392.157
N18430 G2 X48.387 Y394.157 I2 J0
N18440 G1 X65.742
N18450 Y399.961
N18460 X29.032
N18470 G2 X27.032 Y401.961 I0 J2
N18480 G1 Y439.176
N18490 X21.355
N18500 Y394.157
N18510 X38.71
N18520 G2 X40.71 Y392.157 I0 J-2
N18530 G1 Y382.353
N18540 G2 X38.71 Y380.353 I-2 J0
N18550 G1 X9.677
N18560 G2 X7.677 Y382.353 I0 J2
N18570 G1 Y454.182
N18580 G3 X0 Y420.014 I72.191 J-34.168
N18590 G3 X0 Y420 I79.868 J0
N18600 G1 Y119.581
N18610 Z18
N18620 G0 X4 Y47.079
N18630 G1 Z-2
N18640 Y41.157
N18650 G2 X6.218 Y44.118 I5.677 J-1.941
N18660 G2 X4 Y47.079 I3.459 J4.902
N18670 G1 Z18
N18680 G0 X24.066 Y43.02
N18690 G1 Z-2
N18700 X24.194 Y42.763
N18710 X24.392 Y43.02
N18720 X24.066
N18730 Z18
N18740 G0 X43.35 Y101.843
N18750 G1 Z-2
N18760 X43.548 Y101.587
N18770 X43.747 Y101.843
N18780 X43.35
N18790 Z18
N18800 G0 X122.347 Y102.941
N18810 G1 Z-2
N18820 X122.129 Y103.102
N18830 Y102.78
N18840 X122.347 Y102.941
N18850 Z18
N18860 G0 X179.032 Y104.295
N18870 G1 Z-2
N18880 X178.834 Y104.039
N18890 X179.231
N18900 X179.032 Y104.295
N18910 Z18
N18920 G0 X180.411 Y63.725
N18930 G1 Z-2
N18940 X180.194 Y63.887
N18950 Y63.564
N18960 X180.411 Y63.725
N18970 Z18
N18980 G0 X4 Y203.942
N18990 G1 Z-2
N19000 Y198.019
N19010 G2 X6.218 Y200.98 I5.677 J-1.941
N19020 G2 X4 Y203.942 I3.459 J4.902
N19030 G1 Z18
N19040 G0 Y262.765
N19050 G1 Z-2
N19060 Y256.843
N19070 G2 X6.218 Y259.804 I5.677 J-1.941
N19080 G2 X4 Y262.765 I3.459 J4.902
N19090 G1 Z18
N19100 G0 X42.387 Y259.965
N19110 G1 Z-2
N19120 X42.17 Y259.804
N19130 X42.387 Y259.643
N19140 Y259.965
N19150 Z18
N19160 G0 X4 Y380.412
N19170 G1 Z-2
N19180 Y374.49
N19190 G2 X6.218 Y377.451 I5.677 J-1.941
N19200 G2 X4 Y380.412 I3.459 J4.902
N19210 G1 Z18
N19220 G0 X43.418 Y395.875
N19230 G1 Z-2
N19240 X43.548 Y395.705
N19250 X43.747 Y395.961
N19260 X43.35
N19270 X43.418 Y395.875 Z18
N19280 G0 X214.425 Y4
N19290 G1 Z-2
N19300 X220.001
N19310 X221.034 Y4.007
N19320 G2 X217.742 Y6.256 I1.547 J5.797
N19330 G2 X214.425 Y4 I-4.839 J3.548
N19340 G1 Z18
N19350 G0 X137.005
N19360 G1 Z-2
N19370 X143.64
N19380 G2 X140.323 Y6.256 I1.521 J5.804
N19390 G2 X137.005 Y4 I-4.839 J3.548
N19400 G1 Z18
N19410 G0 X140.124 Y62.627
N19420 G1 Z-2
N19430 X140.323 Y62.371
N19440 X140.521 Y62.627
N19450 X140.124
N19460 Z18
N19470 G0 X62.903 Y65.08
N19480 G1 Z-2
N19490 X62.705 Y64.824
N19500 X63.102
N19510 X62.903 Y65.08
N19520 Z18
N19530 G0 X83.637 Y44.118
N19540 G1 Z-2
N19550 X83.419 Y44.279
N19560 Y43.957
N19570 X83.637 Y44.118
N19580 Z18
N19590 G0 X98.296 Y4
N19600 G1 Z-2
N19610 X104.93
N19620 G2 X101.613 Y6.256 I1.522 J5.804
N19630 G2 X98.296 Y4 I-4.839 J3.548
N19640 G1 Z18
N19650 G0 X40.231
N19660 G1 Z-2
N19670 X46.866
N19680 G2 X43.548 Y6.256 I1.521 J5.804
N19690 G2 X40.231 Y4 I-4.838 J3.548
N19700 G1 X40.229 Y3
N19710 X40.227 Y2
N19720 X220
N19730 G3 X220.021 Y2 I0.021 J77.837
N19740 G3 X244.056 Y5.804 I0 J77.837
N19750 G1 X222.581
N19760 G2 X218.581 Y9.804 I0 J4
N19770 G1 Y19.608
N19780 G2 X222.581 Y23.608 I4 J0
N19790 G1 X257.29
N19800 Y39.216
N19810 G2 X261.29 Y43.216 I4 J0
N19820 G1 X276.645
N19830 Y64.627
N19840 X274.968
N19850 Y49.02
N19860 G2 X270.968 Y45.02 I-4 J0
N19870 G1 X255.613
N19880 Y29.412
N19890 G2 X251.613 Y25.412 I-4 J0
N19900 G1 X216.903
N19910 Y9.804
N19920 G2 X212.903 Y5.804 I-4 J0
N19930 G1 X145.161
N19940 G2 X141.161 Y9.804 I0 J4
N19950 G1 Y58.824
N19960 G2 X145.161 Y62.824 I4 J0
N19970 G1 X160.516
N19980 Y84.235
N19990 X139.484
N20000 Y82.431
N20010 X154.839
N20020 G2 X158.839 Y78.431 I0 J-4
N20030 G1 Y68.627
N20040 G2 X154.839 Y64.627 I-4 J0
N20050 G1 X106.452
N20060 G2 X102.452 Y68.627 I0 J4
N20070 G1 Y84.235
N20080 X62.065
N20090 Y68.627
N20100 G2 X58.065 Y64.627 I-4 J0
N20110 G1 X23.355
N20120 Y62.824
N20130 X77.419
N20140 G2 X81.419 Y58.824 I0 J-4
N20150 G1 Y23.608
N20160 X83.097
N20170 Y39.216
N20180 G2 X87.097 Y43.216 I4 J0
N20190 G1 X121.806
N20200 Y45.02
N20210 X87.097
N20220 G2 X83.097 Y49.02 I0 J4
N20230 G1 Y64.627
N20240 X67.742
N20250 G2 X63.742 Y68.627 I0 J4
N20260 G1 Y78.431
N20270 G2 X67.742 Y82.431 I4 J0
N20280 G1 X96.774
N20290 G2 X100.774 Y78.431 I0 J-4
N20300 G1 Y62.824
N20310 X135.484
N20320 G2 X139.484 Y58.824 I0 J-4
N20330 G1 Y9.804
N20340 G2 X135.484 Y5.804 I-4 J0
N20350 G1 X106.452
N20360 G2 X102.452 Y9.804 I0 J4
N20370 G1 Y19.608
N20380 G2 X106.452 Y23.608 I4 J0
N20390 G1 X121.806
N20400 Y25.412
N20410 X100.774
N20420 Y9.804
N20430 G2 X96.774 Y5.804 I-4 J0
N20440 G1 X48.387
N20450 G2 X44.387 Y9.804 I0 J4
N20460 G1 Y25.412
N20470 X42.71
N20480 Y9.804
N20490 G2 X38.71 Y5.804 I-4 J0
N20500 G1 X9.677
N20510 X8.813 Y5.898
N20520 G3 X20 Y2 I11.187 J14.102
N20530 G1 X40.227
N20540 Z18
N20550 X255.29 Y396.898
N20560 Z-2
N20570 Y397.22
N20580 X255.073 Y397.059
N20590 X255.29 Y396.898
N20600 X256.29
N20610 X257.29
N20620 Y437.176
N20630 X203.226
N20640 G2 X199.226 Y441.176 I0 J4
N20650 G1 Y470.588
N20660 G2 X203.226 Y474.588 I4 J0
N20670 G1 X251.613
N20680 G2 X255.613 Y470.588 I0 J-4
N20690 G1 Y460.784
N20700 G2 X251.613 Y456.784 I-4 J0
N20710 G1 X216.903
N20720 Y454.98
N20730 X257.29
N20740 Y470.588
N20750 G2 X261.29 Y474.588 I4 J0
N20760 G1 X276.645
N20770 Y476.392
N20780 X197.548
N20790 Y441.176
N20800 G2 X193.548 Y437.176 I-4 J0
N20810 G1 X178.194
N20820 Y435.373
N20830 X251.613
N20840 G2 X255.613 Y431.373 I0 J-4
N20850 G1 Y401.961
N20860 G2 X251.613 Y397.961 I-4 J0
N20870 G1 X216.903
N20880 Y376.549
N20890 X232.258
N20900 G2 X236.258 Y372.549 I0 J-4
N20910 G1 Y303.922
N20920 G2 X232.258 Y299.922 I-4 J0
N20930 G1 X216.903
N20940 Y298.118
N20950 X232.258
N20960 G2 X236.258 Y294.118 I0 J-4
N20970 G1 Y225.49
N20980 G2 X232.258 Y221.49 I-4 J0
N20990 G1 X183.871
N21000 G2 X179.871 Y225.49 I0 J4
N21010 G1 Y254.902
N21020 G2 X183.871 Y258.902 I4 J0
N21030 G1 X193.548
N21040 G2 X197.548 Y254.902 I0 J-4
N21050 G1 Y239.294
N21060 X218.581
N21070 Y280.314
N21080 X203.226
N21090 G2 X199.226 Y284.314 I0 J4
N21100 G1 Y313.725
N21110 G2 X203.226 Y317.725 I4 J0
N21120 G1 X218.581
N21130 Y358.745
N21140 X203.226
N21150 G2 X199.226 Y362.745 I0 J4
N21160 G1 Y411.765
N21170 G2 X203.226 Y415.765 I4 J0
N21180 G1 X237.935
N21190 Y417.569
N21200 X164.516
N21210 G2 X160.516 Y421.569 I0 J4
N21220 G1 Y450.98
N21230 G2 X164.516 Y454.98 I4 J0
N21240 G1 X179.871
N21250 Y490.196
N21260 G2 X183.871 Y494.196 I4 J0
N21270 G1 X290.323
N21280 X291.187 Y494.102
N21290 G3 X280 Y498 I-11.187 J-14.102
N21300 G1 X80
N21310 G3 X79.984 Y498 I-0.016 J-77.859
N21320 G3 X55.946 Y494.196 I0 J-77.859
N21330 G1 X58.065
N21340 G2 X62.065 Y490.196 I0 J-4
N21350 G1 Y454.98
N21360 X63.742
N21370 Y490.196
N21380 G2 X67.742 Y494.196 I4 J0
N21390 G1 X96.774
N21400 G2 X100.774 Y490.196 I0 J-4
N21410 G1 Y454.98
N21420 X116.129
N21430 G2 X120.129 Y450.98 I0 J-4
N21440 G1 Y415.765
N21450 X121.806
N21460 Y431.373
N21470 G2 X125.806 Y435.373 I4 J0
N21480 G1 X141.161
N21490 Y437.176
N21500 X125.806
N21510 G2 X121.806 Y441.176 I0 J4
N21520 G1 Y470.588
N21530 G2 X125.806 Y474.588 I4 J0
N21540 G1 X141.161
N21550 Y476.392
N21560 X120.129
N21570 Y460.784
N21580 G2 X116.129 Y456.784 I-4 J0
N21590 G1 X106.452
N21600 G2 X102.452 Y460.784 I0 J4
N21610 G1 Y490.196
N21620 G2 X106.452 Y494.196 I4 J0
N21630 G1 X174.194
N21640 G2 X178.194 Y490.196 I0 J-4
N21650 G1 Y460.784
N21660 G2 X174.194 Y456.784 I-4 J0
N21670 G1 X164.516
N21680 G2 X160.516 Y460.784 I0 J4
N21690 G1 Y476.392
N21700 X158.839
N21710 Y460.784
N21720 G2 X154.839 Y456.784 I-4 J0
N21730 G1 X139.484
N21740 Y454.98
N21750 X154.839
N21760 G2 X158.839 Y450.98 I0 J-4
N21770 G1 Y415.765
N21780 X174.194
N21790 G2 X178.194 Y411.765 I0 J-4
N21800 G1 Y362.745
N21810 G2 X174.194 Y358.745 I-4 J0
N21820 G1 X158.839
N21830 Y323.529
N21840 G2 X154.839 Y319.529 I-4 J0
N21850 G1 X139.484
N21860 Y298.118
N21870 X141.161
N21880 Y313.725
N21890 G2 X145.161 Y317.725 I4 J0
N21900 G1 X160.516
N21910 Y333.333
N21920 G2 X164.516 Y337.333 I4 J0
N21930 G1 X199.226
N21940 Y339.137
N21950 X164.516
N21960 G2 X160.516 Y343.137 I0 J4
N21970 G1 Y352.941
N21980 G2 X164.516 Y356.941 I4 J0
N21990 G1 X179.871
N22000 Y411.765
N22010 G2 X183.871 Y415.765 I4 J0
N22020 G1 X193.548
N22030 G2 X197.548 Y411.765 I0 J-4
N22040 G1 Y356.941
N22050 X212.903
N22060 G2 X216.903 Y352.941 I0 J-4
N22070 G1 Y323.529
N22080 G2 X212.903 Y319.529 I-4 J0
N22090 G1 X197.548
N22100 Y278.51
N22110 X212.903
N22120 G2 X216.903 Y274.51 I0 J-4
N22130 G1 Y245.098
N22140 G2 X212.903 Y241.098 I-4 J0
N22150 G1 X203.226
N22160 G2 X199.226 Y245.098 I0 J4
N22170 G1 Y260.706
N22180 X158.839
N22190 Y258.902
N22200 X174.194
N22210 G2 X178.194 Y254.902 I0 J-4
N22220 G1 Y205.882
N22230 G2 X174.194 Y201.882 I-4 J0
N22240 G1 X125.806
N22250 G2 X121.806 Y205.882 I0 J4
N22260 G1 Y241.098
N22270 X120.129
N22280 Y205.882
N22290 G2 X116.129 Y201.882 I-4 J0
N22300 G1 X87.097
N22310 G2 X83.097 Y205.882 I0 J4
N22320 G1 Y215.686
N22330 G2 X87.097 Y219.686 I4 J0
N22340 G1 X102.452
N22350 Y260.706
N22360 X87.097
N22370 G2 X83.097 Y264.706 I0 J4
N22380 G1 Y313.725
N22390 G2 X87.097 Y317.725 I4 J0
N22400 G1 X102.452
N22410 Y339.137
N22420 X100.774
N22430 Y323.529
N22440 G2 X96.774 Y319.529 I-4 J0
N22450 G1 X48.387
N22460 G2 X44.387 Y323.529 I0 J4
N22470 G1 Y352.941
N22480 G2 X48.387 Y356.941 I4 J0
N22490 G1 X63.742
N22500 Y372.549
N22510 G2 X67.742 Y376.549 I4 J0
N22520 G1 X83.097
N22530 Y417.569
N22540 X48.387
N22550 G2 X44.387 Y421.569 I0 J4
N22560 G1 Y431.373
N22570 G2 X48.387 Y435.373 I4 J0
N22580 G1 X96.774
N22590 G2 X100.774 Y431.373 I0 J-4
N22600 G1 Y396.157
N22610 X154.839
N22620 G2 X158.839 Y392.157 I0 J-4
N22630 G1 Y382.353
N22640 G2 X154.839 Y378.353 I-4 J0
N22650 G1 X139.484
N22660 Y343.137
N22670 G2 X135.484 Y339.137 I-4 J0
N22680 G1 X125.806
N22690 G2 X121.806 Y343.137 I0 J4
N22700 G1 Y358.745
N22710 X106.452
N22720 G2 X102.452 Y362.745 I0 J4
N22730 G1 Y372.549
N22740 G2 X106.452 Y376.549 I4 J0
N22750 G1 X121.806
N22760 Y378.353
N22770 X100.774
N22780 Y362.745
N22790 G2 X96.774 Y358.745 I-4 J0
N22800 G1 X81.419
N22810 Y343.137
N22820 G2 X77.419 Y339.137 I-4 J0
N22830 G1 X62.065
N22840 Y337.333
N22850 X83.097
N22860 Y352.941
N22870 G2 X87.097 Y356.941 I4 J0
N22880 G1 X116.129
N22890 G2 X120.129 Y352.941 I0 J-4
N22900 G1 Y284.314
N22910 G2 X116.129 Y280.314 I-4 J0
N22920 G1 X106.452
N22930 G2 X102.452 Y284.314 I0 J4
N22940 G1 Y299.922
N22950 X100.774
N22960 Y278.51
N22970 X135.484
N22980 G2 X139.484 Y274.51 I0 J-4
N22990 G1 Y264.706
N23000 G2 X135.484 Y260.706 I-4 J0
N23010 G1 X120.129
N23020 Y258.902
N23030 X135.484
N23040 G2 X139.484 Y254.902 I0 J-4
N23050 G1 Y239.294
N23060 X154.839
N23070 G2 X158.839 Y235.294 I0 J-4
N23080 G1 Y225.49
N23090 G2 X154.839 Y221.49 I-4 J0
N23100 G1 X139.484
N23110 Y219.686
N23120 X160.516
N23130 Y241.098
N23140 X145.161
N23150 G2 X141.161 Y245.098 I0 J4
N23160 G1 Y274.51
N23170 G2 X145.161 Y278.51 I4 J0
N23180 G1 X160.516
N23190 Y294.118
N23200 G2 X164.516 Y298.118 I4 J0
N23210 G1 X174.194
N23220 G2 X178.194 Y294.118 I0 J-4
N23230 G1 Y278.51
N23240 X179.871
N23250 Y319.529
N23260 X178.194
N23270 Y303.922
N23280 G2 X174.194 Y299.922 I-4 J0
N23290 G1 X158.839
N23300 Y284.314
N23310 G2 X154.839 Y280.314 I-4 J0
N23320 G1 X125.806
N23330 G2 X121.806 Y284.314 I0 J4
N23340 G1 Y333.333
N23350 G2 X125.806 Y337.333 I4 J0
N23360 G1 X141.161
N23370 Y372.549
N23380 G2 X145.161 Y376.549 I4 J0
N23390 G1 X160.516
N23400 Y397.961
N23410 X145.161
N23420 G2 X141.161 Y401.961 I0 J4
N23430 G1 Y417.569
N23440 X139.484
N23450 Y401.961
N23460 G2 X135.484 Y397.961 I-4 J0
N23470 G1 X106.452
N23480 G2 X102.452 Y401.961 I0 J4
N23490 G1 Y437.176
N23500 X87.097
N23510 G2 X83.097 Y441.176 I0 J4
N23520 G1 Y476.392
N23530 X81.419
N23540 Y441.176
N23550 G2 X77.419 Y437.176 I-4 J0
N23560 G1 X48.387
N23570 G2 X44.387 Y441.176 I0 J4
N23580 G1 Y476.392
N23590 X42.71
N23600 Y460.784
N23610 G2 X38.71 Y456.784 I-4 J0
N23620 G1 X23.355
N23630 Y454.98
N23640 X38.71
N23650 G2 X42.71 Y450.98 I0 J-4
N23660 G1 Y415.765
N23670 X77.419
N23680 G2 X81.419 Y411.765 I0 J-4
N23690 G1 Y382.353
N23700 G2 X77.419 Y378.353 I-4 J0
N23710 G1 X62.065
N23720 Y362.745
N23730 G2 X58.065 Y358.745 I-4 J0
N23740 G1 X23.355
N23750 Y356.941
N23760 X38.71
N23770 G2 X42.71 Y352.941 I0 J-4
N23780 G1 Y317.725
N23790 X77.419
N23800 G2 X81.419 Y313.725 I0 J-4
N23810 G1 Y258.902
N23820 X96.774
N23830 G2 X100.774 Y254.902 I0 J-4
N23840 G1 Y225.49
N23850 G2 X96.774 Y221.49 I-4 J0
N23860 G1 X81.419
N23870 Y200.078
N23880 X96.774
N23890 G2 X100.774 Y196.078 I0 J-4
N23900 G1 Y166.667
N23910 G2 X96.774 Y162.667 I-4 J0
N23920 G1 X81.419
N23930 Y160.863
N23940 X102.452
N23950 Y196.078
N23960 G2 X106.452 Y200.078 I4 J0
N23970 G1 X135.484
N23980 G2 X139.484 Y196.078 I0 J-4
N23990 G1 Y160.863
N24000 X141.161
N24010 Y196.078
N24020 G2 X145.161 Y200.078 I4 J0
N24030 G1 X179.871
N24040 Y215.686
N24050 G2 X183.871 Y219.686 I4 J0
N24060 G1 X251.613
N24070 G2 X255.613 Y215.686 I0 J-4
N24080 G1 Y186.275
N24090 G2 X251.613 Y182.275 I-4 J0
N24100 G1 X241.935
N24110 G2 X237.935 Y186.275 I0 J4
N24120 G1 Y201.882
N24130 X236.258
N24140 Y186.275
N24150 G2 X232.258 Y182.275 I-4 J0
N24160 G1 X216.903
N24170 Y141.255
N24180 X218.581
N24190 Y176.471
N24200 G2 X222.581 Y180.471 I4 J0
N24210 G1 X270.968
N24220 G2 X274.968 Y176.471 I0 J-4
N24230 G1 Y147.059
N24240 G2 X270.968 Y143.059 I-4 J0
N24250 G1 X261.29
N24260 G2 X257.29 Y147.059 I0 J4
N24270 G1 Y162.667
N24280 X255.613
N24290 Y141.255
N24300 X270.968
N24310 G2 X274.968 Y137.255 I0 J-4
N24320 G1 Y102.039
N24330 X276.645
N24340 Y182.275
N24350 X261.29
N24360 G2 X257.29 Y186.275 I0 J4
N24370 G1 Y221.49
N24380 X241.935
N24390 G2 X237.935 Y225.49 I0 J4
N24400 G1 Y254.902
N24410 G2 X241.935 Y258.902 I4 J0
N24420 G1 X257.29
N24430 Y260.706
N24440 X241.935
N24450 G2 X237.935 Y264.706 I0 J4
N24460 G1 Y294.118
N24470 G2 X241.935 Y298.118 I4 J0
N24480 G1 X257.29
N24490 Y299.922
N24500 X241.935
N24510 G2 X237.935 Y303.922 I0 J4
N24520 G1 Y378.353
N24530 X222.581
N24540 G2 X218.581 Y382.353 I0 J4
N24550 G1 Y392.157
N24560 G2 X222.581 Y396.157 I4 J0
N24570 G1 X251.613
N24580 G2 X255.613 Y392.157 I0 J-4
N24590 G1 Y376.549
N24600 X270.968
N24610 G2 X274.968 Y372.549 I0 J-4
N24620 G1 Y343.137
N24630 G2 X270.968 Y339.137 I-4 J0
N24640 G1 X261.29
N24650 G2 X257.29 Y343.137 I0 J4
N24660 G1 Y358.745
N24670 X255.613
N24680 Y337.333
N24690 X276.645
N24700 Y378.353
N24710 X261.29
N24720 G2 X257.29 Y382.353 I0 J4
N24730 G1 Y396.898
N24740 X258.29
N24750 X259.29
N24760 Y439.176
N24770 X203.226
N24780 G2 X201.226 Y441.176 I0 J2
N24790 G1 Y470.588
N24800 G2 X203.226 Y472.588 I2 J0
N24810 G1 X251.613
N24820 G2 X253.613 Y470.588 I0 J-2
N24830 G1 Y460.784
N24840 G2 X251.613 Y458.784 I-2 J0
N24850 G1 X214.903
N24860 Y452.98
N24870 X259.29
N24880 Y470.588
N24890 G2 X261.29 Y472.588 I2 J0
N24900 G1 X278.645
N24910 Y478.392
N24920 X195.548
N24930 Y441.176
N24940 G2 X193.548 Y439.176 I-2 J0
N24950 G1 X176.194
N24960 Y433.373
N24970 X251.613
N24980 G2 X253.613 Y431.373 I0 J-2
N24990 G1 Y401.961
N25000 G2 X251.613 Y399.961 I-2 J0
N25010 G1 X214.903
N25020 Y374.549
N25030 X232.258
N25040 G2 X234.258 Y372.549 I0 J-2
N25050 G1 Y303.922
N25060 G2 X232.258 Y301.922 I-2 J0
N25070 G1 X214.903
N25080 Y296.118
N25090 X232.258
N25100 G2 X234.258 Y294.118 I0 J-2
N25110 G1 Y225.49
N25120 G2 X232.258 Y223.49 I-2 J0
N25130 G1 X183.871
N25140 G2 X181.871 Y225.49 I0 J2
N25150 G1 Y254.902
N25160 G2 X183.871 Y256.902 I2 J0
N25170 G1 X193.548
N25180 G2 X195.548 Y254.902 I0 J-2
N25190 G1 Y237.294
N25200 X220.581
N25210 Y282.314
N25220 X203.226
N25230 G2 X201.226 Y284.314 I0 J2
N25240 G1 Y313.725
N25250 G2 X203.226 Y315.725 I2 J0
N25260 G1 X220.581
N25270 Y360.745
N25280 X203.226
N25290 G2 X201.226 Y362.745 I0 J2
N25300 G1 Y411.765
N25310 G2 X203.226 Y413.765 I2 J0
N25320 G1 X239.935
N25330 Y419.569
N25340 X164.516
N25350 G2 X162.516 Y421.569 I0 J2
N25360 G1 Y450.98
N25370 G2 X164.516 Y452.98 I2 J0
N25380 G1 X181.871
N25390 Y490.196
N25400 G2 X183.871 Y492.196 I2 J0
N25410 G1 X290.323
N25420 G2 X292.323 Y490.196 I0 J-2
N25430 G1 Y460.784
N25440 G2 X290.323 Y458.784 I-2 J0
N25450 G1 X272.968
N25460 Y394.157
N25470 X278.645
N25480 Y450.98
N25490 G2 X280.645 Y452.98 I2 J0
N25500 G1 X290.323
N25510 G2 X292.323 Y450.98 I0 J-2
N25520 G1 Y323.529
N25530 G2 X290.323 Y321.529 I-2 J0
N25540 G1 X253.613
N25550 Y315.725
N25560 X270.968
N25570 G2 X272.968 Y313.725 I0 J-2
N25580 G1 Y284.314
N25590 G2 X270.968 Y282.314 I-2 J0
N25600 G1 X253.613
N25610 Y276.51
N25620 X270.968
N25630 G2 X272.968 Y274.51 I0 J-2
N25640 G1 Y245.098
N25650 G2 X270.968 Y243.098 I-2 J0
N25660 G1 X253.613
N25670 Y237.294
N25680 X270.968
N25690 G2 X272.968 Y235.294 I0 J-2
N25700 G1 Y198.078
N25710 X278.645
N25720 Y313.725
N25730 G2 X280.645 Y315.725 I2 J0
N25740 G1 X290.323
N25750 G2 X292.323 Y313.725 I0 J-2
N25760 G1 Y88.235
N25770 G2 X290.323 Y86.235 I-2 J0
N25780 G1 X261.29
N25790 G2 X259.29 Y88.235 I0 J2
N25800 G1 Y125.451
N25810 X241.935
N25820 G2 X239.935 Y127.451 I0 J2
N25830 G1 Y164.667
N25840 X234.258
N25850 Y127.451
N25860 G2 X232.258 Y125.451 I-2 J0
N25870 G1 X203.226
N25880 G2 X201.226 Y127.451 I0 J2
N25890 G1 Y196.078
N25900 G2 X203.226 Y198.078 I2 J0
N25910 G1 X220.581
N25920 Y203.882
N25930 X195.548
N25940 Y186.275
N25950 G2 X193.548 Y184.275 I-2 J0
N25960 G1 X156.839
N25970 Y147.059
N25980 G2 X154.839 Y145.059 I-2 J0
N25990 G1 X125.806
N26000 G2 X123.806 Y147.059 I0 J2
N26010 G1 Y184.275
N26020 X118.129
N26030 Y147.059
N26040 G2 X116.129 Y145.059 I-2 J0
N26050 G1 X67.742
N26060 G2 X65.742 Y147.059 I0 J2
N26070 G1 Y176.471
N26080 G2 X67.742 Y178.471 I2 J0
N26090 G1 X85.097
N26100 Y184.275
N26110 X67.742
N26120 G2 X65.742 Y186.275 I0 J2
N26130 G1 Y235.294
N26140 G2 X67.742 Y237.294 I2 J0
N26150 G1 X85.097
N26160 Y243.098
N26170 X67.742
N26180 G2 X65.742 Y245.098 I0 J2
N26190 G1 Y301.922
N26200 X29.032
N26210 G2 X27.032 Y303.922 I0 J2
N26220 G1 Y341.137
N26230 X21.355
N26240 Y276.51
N26250 X27.032
N26260 Y294.118
N26270 G2 X29.032 Y296.118 I2 J0
N26280 G1 X58.065
N26290 G2 X60.065 Y294.118 I0 J-2
N26300 G1 Y166.667
N26310 G2 X58.065 Y164.667 I-2 J0
N26320 G1 X40.71
N26330 Y147.059
N26340 G2 X38.71 Y145.059 I-2 J0
N26350 G1 X21.355
N26360 Y139.255
N26370 X38.71
N26380 G2 X40.71 Y137.255 I0 J-2
N26390 G1 Y119.647
N26400 X85.097
N26410 Y125.451
N26420 X48.387
N26430 G2 X46.387 Y127.451 I0 J2
N26440 G1 Y156.863
N26450 G2 X48.387 Y158.863 I2 J0
N26460 G1 X58.065
N26470 G2 X60.065 Y156.863 I0 J-2
N26480 G1 Y139.255
N26490 X135.484
N26500 G2 X137.484 Y137.255 I0 J-2
N26510 G1 Y119.647
N26520 X162.516
N26530 Y125.451
N26540 X145.161
N26550 G2 X143.161 Y127.451 I0 J2
N26560 G1 Y137.255
N26570 G2 X145.161 Y139.255 I2 J0
N26580 G1 X181.871
N26590 Y145.059
N26600 X164.516
N26610 G2 X162.516 Y147.059 I0 J2
N26620 G1 Y176.471
N26630 G2 X164.516 Y178.471 I2 J0
N26640 G1 X193.548
N26650 G2 X195.548 Y176.471 I0 J-2
N26660 G1 Y166.667
N26670 G2 X193.548 Y164.667 I-2 J0
N26680 G1 X176.194
N26690 Y158.863
N26700 X193.548
N26710 G2 X195.548 Y156.863 I0 J-2
N26720 G1 Y119.647
N26730 X212.903
N26740 G2 X214.903 Y117.647 I0 J-2
N26750 G1 Y100.039
N26760 X232.258
N26770 G2 X234.258 Y98.039 I0 J-2
N26780 G1 Y49.02
N26790 G2 X232.258 Y47.02 I-2 J0
N26800 G1 X195.548
N26810 Y29.412
N26820 G2 X193.548 Y27.412 I-2 J0
N26830 G1 X176.194
N26840 Y21.608
N26850 X201.226
N26860 Y39.216
N26870 G2 X203.226 Y41.216 I2 J0
N26880 G1 X239.935
N26890 Y58.824
N26900 G2 X241.935 Y60.824 I2 J0
N26910 G1 X259.29
N26920 Y66.627
N26930 X241.935
N26940 G2 X239.935 Y68.627 I0 J2
N26950 G1 Y105.843
N26960 X222.581
N26970 G2 X220.581 Y107.843 I0 J2
N26980 G1 Y117.647
N26990 G2 X222.581 Y119.647 I2 J0
N27000 G1 X251.613
N27010 G2 X253.613 Y117.647 I0 J-2
N27020 G1 Y80.431
N27030 X290.323
N27040 G2 X292.323 Y78.431 I0 J-2
N27050 G1 Y45.818
N27060 G3 X300 Y79.981 I-72.17 J34.163
N27070 G3 X300 Y80 I-79.847 J0
N27080 G1 Y480
N27090 G3 X280 Y500 I-20 J0
N27100 G1 X80
N27110 G3 X79.984 Y500 I-0.016 J-79.859
N27120 G3 X45.553 Y492.196 I0 J-79.859
N27130 G1 X58.065
N27140 G2 X60.065 Y490.196 I0 J-2
N27150 G1 Y452.98
N27160 X65.742
N27170 Y490.196
N27180 G2 X67.742 Y492.196 I2 J0
N27190 G1 X96.774
N27200 G2 X98.774 Y490.196 I0 J-2
N27210 G1 Y452.98
N27220 X116.129
N27230 G2 X118.129 Y450.98 I0 J-2
N27240 G1 Y413.765
N27250 X123.806
N27260 Y431.373
N27270 G2 X125.806 Y433.373 I2 J0
N27280 G1 X143.161
N27290 Y439.176
N27300 X125.806
N27310 G2 X123.806 Y441.176 I0 J2
N27320 G1 Y470.588
N27330 G2 X125.806 Y472.588 I2 J0
N27340 G1 X143.161
N27350 Y478.392
N27360 X118.129
N27370 Y460.784
N27380 G2 X116.129 Y458.784 I-2 J0
N27390 G1 X106.452
N27400 G2 X104.452 Y460.784 I0 J2
N27410 G1 Y490.196
N27420 G2 X106.452 Y492.196 I2 J0
N27430 G1 X174.194
N27440 G2 X176.194 Y490.196 I0 J-2
N27450 G1 Y460.784
N27460 G2 X174.194 Y458.784 I-2 J0
N27470 G1 X164.516
N27480 G2 X162.516 Y460.784 I0 J2
N27490 G1 Y478.392
N27500 X156.839
N27510 Y460.784
N27520 G2 X154.839 Y458.784 I-2 J0
N27530 G1 X137.484
N27540 Y452.98
N27550 X154.839
N27560 G2 X156.839 Y450.98 I0 J-2
N27570 G1 Y413.765
N27580 X174.194
N27590 G2 X176.194 Y411.765 I0 J-2
N27600 G1 Y362.745
N27610 G2 X174.194 Y360.745 I-2 J0
N27620 G1 X156.839
N27630 Y323.529
N27640 G2 X154.839 Y321.529 I-2 J0
N27650 G1 X137.484
N27660 Y296.118
N27670 X143.161
N27680 Y313.725
N27690 G2 X145.161 Y315.725 I2 J0
N27700 G1 X162.516
N27710 Y333.333
N27720 G2 X164.516 Y335.333 I2 J0
N27730 G1 X201.226
N27740 Y341.137
N27750 X164.516
N27760 G2 X162.516 Y343.137 I0 J2
N27770 G1 Y352.941
N27780 G2 X164.516 Y354.941 I2 J0
N27790 G1 X181.871
N27800 Y411.765
N27810 G2 X183.871 Y413.765 I2 J0
N27820 G1 X193.548
N27830 G2 X195.548 Y411.765 I0 J-2
N27840 G1 Y354.941
N27850 X212.903
N27860 G2 X214.903 Y352.941 I0 J-2
N27870 G1 Y323.529
N27880 G2 X212.903 Y321.529 I-2 J0
N27890 G1 X195.548
N27900 Y276.51
N27910 X212.903
N27920 G2 X214.903 Y274.51 I0 J-2
N27930 G1 Y245.098
N27940 G2 X212.903 Y243.098 I-2 J0
N27950 G1 X203.226
N27960 G2 X201.226 Y245.098 I0 J2
N27970 G1 Y262.706
N27980 X156.839
N27990 Y256.902
N28000 X174.194
N28010 G2 X176.194 Y254.902 I0 J-2
N28020 G1 Y205.882
N28030 G2 X174.194 Y203.882 I-2 J0
N28040 G1 X125.806
N28050 G2 X123.806 Y205.882 I0 J2
N28060 G1 Y243.098
N28070 X118.129
N28080 Y205.882
N28090 G2 X116.129 Y203.882 I-2 J0
N28100 G1 X87.097
N28110 G2 X85.097 Y205.882 I0 J2
N28120 G1 Y215.686
N28130 G2 X87.097 Y217.686 I2 J0
N28140 G1 X104.452
N28150 Y262.706
N28160 X87.097
N28170 G2 X85.097 Y264.706 I0 J2
N28180 G1 Y313.725
N28190 G2 X87.097 Y315.725 I2 J0
N28200 G1 X104.452
N28210 Y341.137
N28220 X98.774
N28230 Y323.529
N28240 G2 X96.774 Y321.529 I-2 J0
N28250 G1 X48.387
N28260 G2 X46.387 Y323.529 I0 J2
N28270 G1 Y352.941
N28280 G2 X48.387 Y354.941 I2 J0
N28290 G1 X65.742
N28300 Y372.549
N28310 G2 X67.742 Y374.549 I2 J0
N28320 G1 X85.097
N28330 Y419.569
N28340 X48.387
N28350 G2 X46.387 Y421.569 I0 J2
N28360 G1 Y431.373
N28370 G2 X48.387 Y433.373 I2 J0
N28380 G1 X96.774
N28390 G2 X98.774 Y431.373 I0 J-2
N28400 G1 Y394.157
N28410 X154.839
N28420 G2 X156.839 Y392.157 I0 J-2
N28430 G1 Y382.353
N28440 G2 X154.839 Y380.353 I-2 J0
N28450 G1 X137.484
N28460 Y343.137
N28470 G2 X135.484 Y341.137 I-2 J0
N28480 G1 X125.806
N28490 G2 X123.806 Y343.137 I0 J2
N28500 G1 Y360.745
N28510 X106.452
N28520 G2 X104.452 Y362.745 I0 J2
N28530 G1 Y372.549
N28540 G2 X106.452 Y374.549 I2 J0
N28550 G1 X123.806
N28560 Y380.353
N28570 X98.774
N28580 Y362.745
N28590 G2 X96.774 Y360.745 I-2 J0
N28600 G1 X79.419
N28610 Y343.137
N28620 G2 X77.419 Y341.137 I-2 J0
N28630 G1 X60.065
N28640 Y335.333
N28650 X85.097
N28660 Y352.941
N28670 G2 X87.097 Y354.941 I2 J0
N28680 G1 X116.129
N28690 G2 X118.129 Y352.941 I0 J-2
N28700 G1 Y284.314
N28710 G2 X116.129 Y282.314 I-2 J0
N28720 G1 X106.452
N28730 G2 X104.452 Y284.314 I0 J2
N28740 G1 Y301.922
N28750 X98.774
N28760 Y276.51
N28770 X135.484
N28780 G2 X137.484 Y274.51 I0 J-2
N28790 G1 Y264.706
N28800 G2 X135.484 Y262.706 I-2 J0
N28810 G1 X118.129
N28820 Y256.902
N28830 X135.484
N28840 G2 X137.484 Y254.902 I0 J-2
N28850 G1 Y237.294
N28860 X154.839
N28870 G2 X156.839 Y235.294 I0 J-2
N28880 G1 Y225.49
N28890 G2 X154.839 Y223.49 I-2 J0
N28900 G1 X137.484
N28910 Y217.686
N28920 X162.516
N28930 Y243.098
N28940 X145.161
N28950 G2 X143.161 Y245.098 I0 J2
N28960 G1 Y274.51
N28970 G2 X145.161 Y276.51 I2 J0
N28980 G1 X162.516
N28990 Y294.118
N29000 G2 X164.516 Y296.118 I2 J0
N29010 G1 X174.194
N29020 G2 X176.194 Y294.118 I0 J-2
N29030 G1 Y276.51
N29040 X181.871
N29050 Y321.529
N29060 X176.194
N29070 Y303.922
N29080 G2 X174.194 Y301.922 I-2 J0
N29090 G1 X156.839
N29100 Y284.314
N29110 G2 X154.839 Y282.314 I-2 J0
N29120 G1 X125.806
N29130 G2 X123.806 Y284.314 I0 J2
N29140 G1 Y333.333
N29150 G2 X125.806 Y335.333 I2 J0
N29160 G1 X143.161
N29170 Y372.549
N29180 G2 X145.161 Y374.549 I2 J0
N29190 G1 X162.516
N29200 Y399.961
N29210 X145.161
N29220 G2 X143.161 Y401.961 I0 J2
N29230 G1 Y419.569
N29240 X137.484
N29250 Y401.961
N29260 G2 X135.484 Y399.961 I-2 J0
N29270 G1 X106.452
N29280 G2 X104.452 Y401.961 I0 J2
N29290 G1 Y439.176
N29300 X87.097
N29310 G2 X85.097 Y441.176 I0 J2
N29320 G1 Y478.392
N29330 X79.419
N29340 Y441.176
N29350 G2 X77.419 Y439.176 I-2 J0
N29360 G1 X48.387
N29370 G2 X46.387 Y441.176 I0 J2
N29380 G1 Y478.392
N29390 X40.71
N29400 Y460.784
N29410 G2 X38.71 Y458.784 I-2 J0
N29420 G1 X21.355
N29430 Y452.98
N29440 X38.71
N29450 G2 X40.71 Y450.98 I0 J-2
N29460 G1 Y413.765
N29470 X77.419
N29480 G2 X79.419 Y411.765 I0 J-2
N29490 G1 Y382.353
N29500 G2 X77.419 Y380.353 I-2 J0
N29510 G1 X60.065
N29520 Y362.745
N29530 G2 X58.065 Y360.745 I-2 J0
N29540 G1 X21.355
N29550 Y354.941
N29560 X38.71
N29570 G2 X40.71 Y352.941 I0 J-2
N29580 G1 Y315.725
N29590 X77.419
N29600 G2 X79.419 Y313.725 I0 J-2
N29610 G1 Y256.902
N29620 X96.774
N29630 G2 X98.774 Y254.902 I0 J-2
N29640 G1 Y225.49
N29650 G2 X96.774 Y223.49 I-2 J0
N29660 G1 X79.419
N29670 Y198.078
N29680 X96.774
N29690 G2 X98.774 Y196.078 I0 J-2
N29700 G1 Y166.667
N29710 G2 X96.774 Y164.667 I-2 J0
N29720 G1 X79.419
N29730 Y158.863
N29740 X104.452
N29750 Y196.078
N29760 G2 X106.452 Y198.078 I2 J0
N29770 G1 X135.484
N29780 G2 X137.484 Y196.078 I0 J-2
N29790 G1 Y158.863
N29800 X143.161
N29810 Y196.078
N29820 G2 X145.161 Y198.078 I2 J0
N29830 G1 X181.871
N29840 Y215.686
N29850 G2 X183.871 Y217.686 I2 J0
N29860 G1 X251.613
N29870 G2 X253.613 Y215.686 I0 J-2
N29880 G1 Y186.275
N29890 G2 X251.613 Y184.275 I-2 J0
N29900 G1 X241.935
N29910 G2 X239.935 Y186.275 I0 J2
N29920 G1 Y203.882
N29930 X234.258
N29940 Y186.275
N29950 G2 X232.258 Y184.275 I-2 J0
N29960 G1 X214.903
N29970 Y139.255
N29980 X220.581
N29990 Y176.471
N30000 G2 X222.581 Y178.471 I2 J0
N30010 G1 X270.968
N30020 G2 X272.968 Y176.471 I0 J-2
N30030 G1 Y147.059
N30040 G2 X270.968 Y145.059 I-2 J0
N30050 G1 X261.29
N30060 G2 X259.29 Y147.059 I0 J2
N30070 G1 Y164.667
N30080 X253.613
N30090 Y139.255
N30100 X270.968
N30110 G2 X272.968 Y137.255 I0 J-2
N30120 G1 Y100.039
N30130 X278.645
N30140 Y184.275
N30150 X261.29
N30160 G2 X259.29 Y186.275 I0 J2
N30170 G1 Y223.49
N30180 X241.935
N30190 G2 X239.935 Y225.49 I0 J2
N30200 G1 Y254.902
N30210 G2 X241.935 Y256.902 I2 J0
N30220 G1 X259.29
N30230 Y262.706
N30240 X241.935
N30250 G2 X239.935 Y264.706 I0 J2
N30260 G1 Y294.118
N30270 G2 X241.935 Y296.118 I2 J0
N30280 G1 X259.29
N30290 Y301.922
N30300 X241.935
N30310 G2 X239.935 Y303.922 I0 J2
N30320 G1 Y380.353
N30330 X222.581
N30340 G2 X220.581 Y382.353 I0 J2
N30350 G1 Y392.157
N30360 G2 X222.581 Y394.157 I2 J0
N30370 G1 X251.613
N30380 G2 X253.613 Y392.157 I0 J-2
N30390 G1 Y374.549
N30400 X270.968
N30410 G2 X272.968 Y372.549 I0 J-2
N30420 G1 Y343.137
N30430 G2 X270.968 Y341.137 I-2 J0
N30440 G1 X261.29
N30450 G2 X259.29 Y343.137 I0 J2
N30460 G1 Y360.745
N30470 X253.613
N30480 Y335.333
N30490 X278.645
N30500 Y380.353
N30510 X261.29
N30520 G2 X259.29 Y382.353 I0 J2
N30530 G1 Y396.898
N30540 Z18
N30550 G0 X175.761 Y495.988
N30560 G1 Z-2
N30570 G2 X179.032 Y493.744 I-1.567 J-5.792
N30580 G2 X182.35 Y496 I4.839 J-3.548
N30590 G1 X175.715
N30600 X175.761 Y495.988 Z18
N30610 G0 X98.296 Y496
N30620 G1 Z-2
N30630 G2 X101.613 Y493.744 I-1.522 J-5.804
N30640 G2 X104.93 Y496 I4.839 J-3.548
N30650 G1 X98.296
N30660 Z18
N30670 G0 X63.203 Y494.121
N30680 G1 Z-2
N30690 X62.701 Y494.005
N30700 X62.903 Y493.744
N30710 X63.203 Y494.121
N30720 Z18
N30730 G0 X119.806 Y456.043
N30740 G1 Z-2
N30750 X119.589 Y455.882
N30760 X119.806 Y455.721
N30770 Y456.043
N30780 Z18
N30790 G0 X122.347 Y436.275
N30800 G1 Z-2
N30810 X122.129 Y436.436
N30820 Y436.114
N30830 X122.347 Y436.275
N30840 Z18
N30850 G0 X159.677 Y457.237
N30860 G1 Z-2
N30870 X158.299 Y455.882
N30880 X159.677 Y454.528
N30890 X161.056 Y455.882
N30900 X159.677 Y457.237
N30910 Z18
N30920 G0 X178.834 Y415.569
N30930 G1 Z-2
N30940 X179.032 Y415.313
N30950 X179.231 Y415.569
N30960 X178.834
N30970 Z18
N30980 G0 X161.056 Y338.235
N30990 G1 Z-2
N31000 X160.839 Y338.396
N31010 Y338.074
N31020 X161.056 Y338.235
N31030 Z18
N31040 G0 X198.188 Y415.569
N31050 G1 Z-2
N31060 X198.387 Y415.313
N31070 X198.586 Y415.569
N31080 X198.188
N31090 Z18
N31100 G0 X178.834 Y258.706
N31110 G1 Z-2
N31120 X179.032 Y258.45
N31130 X179.231 Y258.706
N31140 X178.834
N31150 Z18
N31160 G0 X180.411 Y220.588
N31170 G1 Z-2
N31180 X180.194 Y220.749
N31190 Y220.427
N31200 X180.411 Y220.588
N31210 Z18
N31220 G0 X140.124 Y199.882
N31230 G1 Z-2
N31240 X140.323 Y199.626
N31250 X140.521 Y199.882
N31260 X140.124
N31270 Z18
N31280 G0 X120.968 Y202.335
N31290 G1 Z-2
N31300 X120.769 Y202.078
N31310 X121.166
N31320 X120.968 Y202.335
N31330 Z18
N31340 G0 X101.414 Y199.882
N31350 G1 Z-2
N31360 X101.613 Y199.626
N31370 X101.812 Y199.882
N31380 X101.414
N31390 Z18
N31400 G0 X82.059 Y317.529
N31410 G1 Z-2
N31420 X82.258 Y317.273
N31430 X82.457 Y317.529
N31440 X82.059
N31450 Z18
N31460 G0 X43.35 Y356.745
N31470 G1 Z-2
N31480 X43.548 Y356.489
N31490 X43.747 Y356.745
N31500 X43.35
N31510 Z18
N31520 G0 X44.927 Y436.275
N31530 G1 Z-2
N31540 X44.71 Y436.436
N31550 Y436.114
N31560 X44.927 Y436.275
N31570 Z18
N31580 G0 X82.258 Y437.629
N31590 G1 Z-2
N31600 X82.059 Y437.373
N31610 X82.457
N31620 X82.258 Y437.629
N31630 Z18
N31640 G0 X140.323 Y398.413
N31650 G1 Z-2
N31660 X140.124 Y398.157
N31670 X140.521
N31680 X140.323 Y398.413
N31690 Z18
N31700 G0 X122.347 Y338.235
N31710 G1 Z-2
N31720 X122.129 Y338.396
N31730 Y338.074
N31740 X122.347 Y338.235
N31750 Z18
N31760 G0 X101.613 Y359.197
N31770 G1 Z-2
N31780 X101.414 Y358.941
N31790 X101.812
N31800 X101.613 Y359.197
N31810 Z18
N31820 G0 X120.968 Y280.766
N31830 G1 Z-2
N31840 X120.769 Y280.51
N31850 X121.166
N31860 X120.968 Y280.766
N31870 Z18
N31880 G0 X140.124 Y278.314
N31890 G1 Z-2
N31900 X140.323 Y278.058
N31910 X140.521 Y278.314
N31920 X140.124
N31930 Z18
N31940 G0 X139.161 Y259.965
N31950 G1 Z-2
N31960 X138.944 Y259.804
N31970 X139.161 Y259.643
N31980 Y259.965
N31990 Z18
N32000 G0 X177.871 Y299.181
N32010 G1 Z-2
N32020 X177.653 Y299.02
N32030 X177.871 Y298.859
N32040 Y299.181
N32050 Z18
N32060 G0 X42.387 Y456.043
N32070 G1 Z-2
N32080 X42.17 Y455.882
N32090 X42.387 Y455.721
N32100 Y456.043
N32110 Z18
N32120 G0 X237.097 Y221.942
N32130 G1 Z-2
N32140 X236.898 Y221.686
N32150 X237.295
N32160 X237.097 Y221.942
N32170 Z18
N32180 G0 X256.452 Y182.727
N32190 G1 Z-2
N32200 X256.253 Y182.471
N32210 X256.65
N32220 X256.452 Y182.727
N32230 Z18
N32240 G0 X237.097
N32250 G1 Z-2
N32260 X236.898 Y182.471
N32270 X237.295
N32280 X237.097 Y182.727
N32290 Z18
N32300 G0 X274.645 Y142.318
N32310 G1 Z-2
N32320 X274.428 Y142.157
N32330 X274.645 Y141.996
N32340 Y142.318
N32350 Z18
N32360 G0 X238.476 Y259.804
N32370 G1 Z-2
N32380 X238.258 Y259.965
N32390 Y259.643
N32400 X238.476 Y259.804
N32410 Z18
N32420 G0 X237.097 Y300.374
N32430 G1 Z-2
N32440 X235.718 Y299.02
N32450 X237.097 Y297.665
N32460 X238.476 Y299.02
N32470 X237.097 Y300.374
N32480 Z18
N32490 G0 X198.387 Y437.629
N32500 G1 Z-2
N32510 X198.188 Y437.373
N32520 X198.586
N32530 X198.387 Y437.629
N32540 Z18
N32550 G0 X256.254 Y474.392
N32560 G1 Z-2
N32570 X256.452 Y474.136
N32580 X256.65 Y474.392
N32590 X256.254
N32600 Z18
N32610 G0 X296 Y458.843
N32620 G1 Z-2
N32630 G2 X293.782 Y455.882 I-5.677 J1.941
N32640 G2 X296 Y452.921 I-3.459 J-4.902
N32650 G1 Y458.843
N32660 Z18
N32670 G0 Y321.589
N32680 G1 Z-2
N32690 G2 X293.782 Y318.627 I-5.677 J1.94
N32700 G2 X296 Y315.666 I-3.459 J-4.902
N32710 G1 Y321.589
N32720 Z18
N32730 G0 X275.608 Y317.529
N32740 G1 Z-2
N32750 X275.806 Y317.273
N32760 X276.005 Y317.529
N32770 X275.608
N32780 Z18
N32790 G0 X274.645 Y279.573
N32800 G1 Z-2
N32810 X274.428 Y279.412
N32820 X274.645 Y279.251
N32830 Y279.573
N32840 Z18
N32850 G0 Y240.357
N32860 G1 Z-2
N32870 X274.428 Y240.196
N32880 X274.645 Y240.035
N32890 Y240.357
N32900 Z18
N32910 G0 X296 Y86.294
N32920 G1 Z-2
N32930 G2 X293.782 Y83.333 I-5.677 J1.941
N32940 G2 X296 Y80.372 I-3.459 J-4.902
N32950 G1 Y86.294
N32960 Z18
N32970 G0 X237.097 Y123.903
N32980 G1 Z-2
N32990 X236.898 Y123.647
N33000 X237.295
N33010 X237.097 Y123.903
N33020 Z18
N33030 G0 X217.543 Y121.451
N33040 G1 Z-2
N33050 X217.742 Y121.195
N33060 X217.941 Y121.451
N33070 X217.543
N33080 Z18
N33090 G0 X197.226 Y161.926
N33100 G1 Z-2
N33110 X197.008 Y161.765
N33120 X197.226 Y161.604
N33130 Y161.926
N33140 Z18
N33150 G0 Y181.534
N33160 G1 Z-2
N33170 X197.008 Y181.373
N33180 X197.226 Y181.212
N33190 Y181.534
N33200 Z18
N33210 G0 X159.677 Y143.511
N33220 G1 Z-2
N33230 X159.479 Y143.255
N33240 X159.876
N33250 X159.677 Y143.511
N33260 Z18
N33270 G0 X140.124 Y141.059
N33280 G1 Z-2
N33290 X140.323 Y140.803
N33300 X140.521 Y141.059
N33310 X140.124
N33320 Z18
N33330 G0 X120.968 Y143.511
N33340 G1 Z-2
N33350 X120.769 Y143.255
N33360 X121.166
N33370 X120.968 Y143.511
N33380 Z18
N33390 G0 X61.742 Y161.926
N33400 G1 Z-2
N33410 X61.524 Y161.765
N33420 X61.742 Y161.604
N33430 Y161.926
N33440 Z18
N33450 G0 X64.282 Y181.373
N33460 G1 Z-2
N33470 X64.065 Y181.534
N33480 Y181.212
N33490 X64.282 Y181.373
N33500 Z18
N33510 G0 Y240.196
N33520 G1 Z-2
N33530 X64.065 Y240.357
N33540 Y240.035
N33550 X64.282 Y240.196
N33560 Z18
N33570 G0 X25.572 Y299.02
N33580 G1 Z-2
N33590 X25.355 Y299.181
N33600 Y298.859
N33610 X25.572 Y299.02
N33620 Z18
N33630 G0 X42.387 Y142.318
N33640 G1 Z-2
N33650 X42.17 Y142.157
N33660 X42.387 Y141.996
N33670 Y142.318
N33680 Z18
N33690 G0 X238.476 Y63.725
N33700 G1 Z-2
N33710 X238.258 Y63.887
N33720 Y63.564
N33730 X238.476 Y63.725
N33740 X239.052 Y64.542
N33750 X239.629 Y65.359
N33760 G2 X237.935 Y68.627 I2.306 J3.268
N33770 G1 Y103.843
N33780 X222.581
N33790 G2 X218.581 Y107.843 I0 J4
N33800 G1 Y117.647
N33810 G2 X222.581 Y121.647 I4 J0
N33820 G1 X251.613
N33830 G2 X255.613 Y117.647 I0 J-4
N33840 G1 Y82.431
N33850 X290.323
N33860 G2 X294.323 Y78.431 I0 J-4
N33870 G1 Y56.337
N33880 G3 X298 Y79.981 I-74.17 J23.644
N33890 G3 X298 Y80 I-77.847 J0
N33900 G1 Y480
N33910 G3 X294.238 Y491.012 I-18 J0
N33920 G1 X294.323 Y490.196
N33930 Y460.784
N33940 G2 X290.323 Y456.784 I-4 J0
N33950 G1 X274.968
N33960 Y396.157
N33970 X276.645
N33980 Y450.98
N33990 G2 X280.645 Y454.98 I4 J0
N34000 G1 X290.323
N34010 G2 X294.323 Y450.98 I0 J-4
N34020 G1 Y323.529
N34030 G2 X290.323 Y319.529 I-4 J0
N34040 G1 X255.613
N34050 Y317.725
N34060 X270.968
N34070 G2 X274.968 Y313.725 I0 J-4
N34080 G1 Y284.314
N34090 G2 X270.968 Y280.314 I-4 J0
N34100 G1 X255.613
N34110 Y278.51
N34120 X270.968
N34130 G2 X274.968 Y274.51 I0 J-4
N34140 G1 Y245.098
N34150 G2 X270.968 Y241.098 I-4 J0
N34160 G1 X255.613
N34170 Y239.294
N34180 X270.968
N34190 G2 X274.968 Y235.294 I0 J-4
N34200 G1 Y200.078
N34210 X276.645
N34220 Y313.725
N34230 G2 X280.645 Y317.725 I4 J0
N34240 G1 X290.323
N34250 G2 X294.323 Y313.725 I0 J-4
N34260 G1 Y88.235
N34270 G2 X290.323 Y84.235 I-4 J0
N34280 G1 X261.29
N34290 G2 X257.29 Y88.235 I0 J4
N34300 G1 Y123.451
N34310 X241.935
N34320 G2 X237.935 Y127.451 I0 J4
N34330 G1 Y162.667
N34340 X236.258
N34350 Y127.451
N34360 G2 X232.258 Y123.451 I-4 J0
N34370 G1 X203.226
N34380 G2 X199.226 Y127.451 I0 J4
N34390 G1 Y196.078
N34400 G2 X203.226 Y200.078 I4 J0
N34410 G1 X218.581
N34420 Y201.882
N34430 X197.548
N34440 Y186.275
N34450 G2 X193.548 Y182.275 I-4 J0
N34460 G1 X158.839
N34470 Y147.059
N34480 G2 X154.839 Y143.059 I-4 J0
N34490 G1 X125.806
N34500 G2 X121.806 Y147.059 I0 J4
N34510 G1 Y182.275
N34520 X120.129
N34530 Y147.059
N34540 G2 X116.129 Y143.059 I-4 J0
N34550 G1 X67.742
N34560 G2 X63.742 Y147.059 I0 J4
N34570 G1 Y176.471
N34580 G2 X67.742 Y180.471 I4 J0
N34590 G1 X83.097
N34600 Y182.275
N34610 X67.742
N34620 G2 X63.742 Y186.275 I0 J4
N34630 G1 Y235.294
N34640 G2 X67.742 Y239.294 I4 J0
N34650 G1 X83.097
N34660 Y241.098
N34670 X67.742
N34680 G2 X63.742 Y245.098 I0 J4
N34690 G1 Y299.922
N34700 X29.032
N34710 G2 X25.032 Y303.922 I0 J4
N34720 G1 Y339.137
N34730 X23.355
N34740 Y278.51
N34750 X25.032
N34760 Y294.118
N34770 G2 X29.032 Y298.118 I4 J0
N34780 G1 X58.065
N34790 G2 X62.065 Y294.118 I0 J-4
N34800 G1 Y166.667
N34810 G2 X58.065 Y162.667 I-4 J0
N34820 G1 X42.71
N34830 Y147.059
N34840 G2 X38.71 Y143.059 I-4 J0
N34850 G1 X23.355
N34860 Y141.255
N34870 X38.71
N34880 G2 X42.71 Y137.255 I0 J-4
N34890 G1 Y121.647
N34900 X83.097
N34910 Y123.451
N34920 X48.387
N34930 G2 X44.387 Y127.451 I0 J4
N34940 G1 Y156.863
N34950 G2 X48.387 Y160.863 I4 J0
N34960 G1 X58.065
N34970 G2 X62.065 Y156.863 I0 J-4
N34980 G1 Y141.255
N34990 X135.484
N35000 G2 X139.484 Y137.255 I0 J-4
N35010 G1 Y121.647
N35020 X160.516
N35030 Y123.451
N35040 X145.161
N35050 G2 X141.161 Y127.451 I0 J4
N35060 G1 Y137.255
N35070 G2 X145.161 Y141.255 I4 J0
N35080 G1 X179.871
N35090 Y143.059
N35100 X164.516
N35110 G2 X160.516 Y147.059 I0 J4
N35120 G1 Y176.471
N35130 G2 X164.516 Y180.471 I4 J0
N35140 G1 X193.548
N35150 G2 X197.548 Y176.471 I0 J-4
N35160 G1 Y166.667
N35170 G2 X193.548 Y162.667 I-4 J0
N35180 G1 X178.194
N35190 Y160.863
N35200 X193.548
N35210 G2 X197.548 Y156.863 I0 J-4
N35220 G1 Y121.647
N35230 X212.903
N35240 G2 X216.903 Y117.647 I0 J-4
N35250 G1 Y102.039
N35260 X232.258
N35270 G2 X236.258 Y98.039 I0 J-4
N35280 G1 Y49.02
N35290 G2 X232.258 Y45.02 I-4 J0
N35300 G1 X197.548
N35310 Y29.412
N35320 G2 X193.548 Y25.412 I-4 J0
N35330 G1 X178.194
N35340 Y23.608
N35350 X199.226
N35360 Y39.216
N35370 G2 X203.226 Y43.216 I4 J0
N35380 G1 X237.935
N35390 Y58.824
N35400 G2 X241.935 Y62.824 I4 J0
N35410 G1 X257.29
N35420 Y64.627
N35430 X241.935
N35440 G2 X239.629 Y65.359 I0 J4
N35450 G1 Z18
N35460 X184.709 Y280.169 Z17
N35470 Z-3
N35480 X199.008 Y280.204
N35490 X199.347 Y280.361
N35500 X199.48 Y280.547
N35510 X199.546 Y281.206
N35520 X199.415 Y281.56
N35530 X199.202 Y281.743
N35540 X198.483 Y281.889
N35550 X170.415
N35560 G2 X168.415 Y283.868 I0 J2
N35570 G1 X168.348 Y290.089
N35580 X168.189 Y290.413
N35590 X167.918 Y290.605
N35600 X167.385 Y290.677
N35610 X166.974 Y290.556
N35620 X166.774 Y290.352
N35630 X166.619 Y289.814
N35640 X166.679 Y271.83
N35650 X166.838 Y271.487
N35660 X167.074 Y271.316
N35670 X167.593 Y271.246
N35680 X168.026 Y271.372
N35690 X168.242 Y271.588
N35700 X168.408 Y272.156
N35710 X168.415 Y278.137
N35720 G2 X170.41 Y280.134 I2 J-0.003
N35730 G1 X184.709 Y280.169
N35740 G0 Z0
N35750 G1 Z-5
N35760 X199.008 Y280.204
N35770 X199.347 Y280.361
N35780 X199.48 Y280.547
N35790 X199.546 Y281.206
N35800 X199.415 Y281.56
N35810 X199.202 Y281.743
N35820 X198.483 Y281.889
N35830 X170.415
N35840 G2 X168.415 Y283.868 I0 J2
N35850 G1 X168.348 Y290.089
N35860 X168.189 Y290.413
N35870 X167.918 Y290.605
N35880 X167.385 Y290.677
N35890 X166.974 Y290.556
N35900 X166.774 Y290.352
N35910 X166.619 Y289.814
N35920 X166.679 Y271.83
N35930 X166.838 Y271.487
N35940 X167.074 Y271.316
N35950 X167.593 Y271.246
N35960 X168.026 Y271.372
N35970 X168.242 Y271.588
N35980 X168.408 Y272.156
N35990 X168.415 Y278.137
N36000 G2 X170.41 Y280.134 I2 J-0.003
N36010 G1 X184.709 Y280.169
N36020 G0 Z-2
N36030 G1 Z-7
N36040 X199.008 Y280.204
N36050 X199.347 Y280.361
N36060 X199.48 Y280.547
N36070 X199.546 Y281.206
N36080 X199.415 Y281.56
N36090 X199.202 Y281.743
N36100 X198.483 Y281.889
N36110 X170.415
N36120 G2 X168.415 Y283.868 I0 J2
N36130 G1 X168.348 Y290.089
N36140 X168.189 Y290.413
N36150 X167.918 Y290.605
N36160 X167.385 Y290.677
N36170 X166.974 Y290.556
N36180 X166.774 Y290.352
N36190 X166.619 Y289.814
N36200 X166.679 Y271.83
N36210 X166.838 Y271.487
N36220 X167.074 Y271.316
N36230 X167.593 Y271.246
N36240 X168.026 Y271.372
N36250 X168.242 Y271.588
N36260 X168.408 Y272.156
N36270 X168.415 Y278.137
N36280 G2 X170.41 Y280.134 I2 J-0.003
N36290 G1 X184.709 Y280.169
N36300 G0 Z-4
N36310 G1 Z-9
N36320 X199.008 Y280.204
N36330 X199.347 Y280.361
N36340 X199.48 Y280.547
N36350 X199.546 Y281.206
N36360 X199.415 Y281.56
N36370 X199.202 Y281.743
N36380 X198.483 Y281.889
N36390 X170.415
N36400 G2 X168.415 Y283.868 I0 J2
N36410 G1 X168.348 Y290.089
N36420 X168.189 Y290.413
N36430 X167.918 Y290.605
N36440 X167.385 Y290.677
N36450 X166.974 Y290.556
N36460 X166.774 Y290.352
N36470 X166.619 Y289.814
N36480 X166.679 Y271.83
N36490 X166.838 Y271.487
N36500 X167.074 Y271.316
N36510 X167.593 Y271.246
N36520 X168.026 Y271.372
N36530 X168.242 Y271.588
N36540 X168.408 Y272.156
N36550 X168.415 Y278.137
N36560 G2 X170.41 Y280.134 I2 J-0.003
N36570 G1 X184.709 Y280.169
N36580 G0 Z-6
N36590 G1 Z-11
N36600 X199.008 Y280.204
N36610 X199.347 Y280.361
N36620 X199.48 Y280.547
N36630 X199.546 Y281.206
N36640 X199.415 Y281.56
N36650 X199.202 Y281.743
N36660 X198.483 Y281.889
N36670 X170.415
N36680 G2 X168.415 Y283.868 I0 J2
N36690 G1 X168.348 Y290.089
N36700 X168.189 Y290.413
N36710 X167.918 Y290.605
N36720 X167.385 Y290.677
N36730 X166.974 Y290.556
N36740 X166.774 Y290.352
N36750 X166.619 Y289.814
N36760 X166.679 Y271.83
N36770 X166.838 Y271.487
N36780 X167.074 Y271.316
N36790 X167.593 Y271.246
N36800 X168.026 Y271.372
N36810 X168.242 Y271.588
N36820 X168.408 Y272.156
N36830 X168.415 Y278.137
N36840 G2 X170.41 Y280.134 I2 J-0.003
N36850 G1 X184.709 Y280.169
N36860 Z9
N36870 X183.978 Y321.952 Z17
N36880 Z-3
N36890 X181.742 Y321.1
N36900 X179.308 Y319.518
N36910 X177.3 Y317.433
N36920 X175.751 Y314.882
N36930 X174.906 Y312.52
N36940 X174.555 Y310.007
N36950 X174.71 Y307.406
N36960 X175.368 Y304.985
N36970 X176.78 Y302.305
N36980 X178.705 Y300.067
N36990 X181.099 Y298.315
N37000 X183.376 Y297.293
N37010 X185.853 Y296.742
N37020 X188.485 Y296.692
N37030 X190.997 Y297.143
N37040 X193.315 Y298.077
N37050 X195.761 Y299.734
N37060 X197.736 Y301.891
N37070 X199.212 Y304.502
N37080 X199.958 Y306.897
N37090 X200.209 Y309.475
N37100 X199.871 Y312.653
N37110 X199.105 Y314.982
N37120 X197.893 Y317.013
N37130 X196.426 Y318.501
N37140 X195.838 Y318.642
N37150 X195.377 Y318.55
N37160 X195.017 Y318.242
N37170 X194.953 Y318.052
N37180 X195.034 Y317.63
N37190 X195.958 Y316.386
N37200 X197.301 Y314.309
N37210 X197.536 Y313.8
N37220 X198.224 Y311.504
N37230 X198.308 Y310.948
N37240 X198.333 Y308.339
N37250 X198.249 Y307.747
N37260 X197.488 Y305.205
N37270 X197.26 Y304.706
N37280 X195.842 Y302.475
N37290 X195.482 Y302.051
N37300 X193.753 Y300.517
N37310 X193.251 Y300.191
N37320 X191.183 Y299.254
N37330 X190.789 Y299.123
N37340 X190.232 Y298.999
N37350 G2 X189.8 Y298.952 I-0.432 J1.953
N37360 G2 X187.8 Y300.946 I0 J2
N37370 G1 X187.734 Y321.775
N37380 X187.601 Y322.068
N37390 X187.414 Y322.193
N37400 X186.303 Y322.299
N37410 X183.978 Y321.952
N37420 G0 Z0
N37430 G0 X187.005 Y317.965
N37440 G0 Z-3
N37450 G1 Y301.003
N37460 G2 X185.005 Y299.003 I-2 J0
N37470 G2 X184.296 Y299.132 I0 J2
N37480 G1 X182.164 Y299.94
N37490 X181.641 Y300.235
N37500 X179.6 Y301.829
N37510 X179.207 Y302.239
N37520 X177.689 Y304.354
N37530 X177.419 Y304.881
N37540 X176.572 Y307.393
N37550 X176.478 Y307.824
N37560 X176.357 Y308.984
N37570 Y309.399
N37580 X176.599 Y311.717
N37590 X176.738 Y312.268
N37600 X177.747 Y314.726
N37610 X178.04 Y315.222
N37620 X179.687 Y317.264
N37630 X180.089 Y317.641
N37640 X181.969 Y318.972
N37650 X182.493 Y319.237
N37660 X184.373 Y319.862
N37670 G2 X185.005 Y319.965 I0.632 J-1.897
N37680 G2 X187.005 Y317.965 I0 J-2
N37690 G0 Z0
N37700 G0 X183.978 Y321.952
N37710 G1 Z-5
N37720 X181.742 Y321.1
N37730 X179.308 Y319.518
N37740 X177.3 Y317.433
N37750 X175.751 Y314.882
N37760 X174.906 Y312.52
N37770 X174.555 Y310.007
N37780 X174.71 Y307.406
N37790 X175.368 Y304.985
N37800 X176.78 Y302.305
N37810 X178.705 Y300.067
N37820 X181.099 Y298.315
N37830 X183.376 Y297.293
N37840 X185.853 Y296.742
N37850 X188.485 Y296.692
N37860 X190.997 Y297.143
N37870 X193.315 Y298.077
N37880 X195.761 Y299.734
N37890 X197.736 Y301.891
N37900 X199.212 Y304.502
N37910 X199.958 Y306.897
N37920 X200.209 Y309.475
N37930 X199.871 Y312.653
N37940 X199.105 Y314.982
N37950 X197.893 Y317.013
N37960 X196.426 Y318.501
N37970 X195.838 Y318.642
N37980 X195.377 Y318.55
N37990 X195.017 Y318.242
N38000 X194.953 Y318.052
N38010 X195.034 Y317.63
N38020 X195.958 Y316.386
N38030 X197.301 Y314.309
N38040 X197.536 Y313.8
N38050 X198.224 Y311.504
N38060 X198.308 Y310.948
N38070 X198.333 Y308.339
N38080 X198.249 Y307.747
N38090 X197.488 Y305.205
N38100 X197.26 Y304.706
N38110 X195.842 Y302.475
N38120 X195.482 Y302.051
N38130 X193.753 Y300.517
N38140 X193.251 Y300.191
N38150 X191.183 Y299.254
N38160 X190.789 Y299.123
N38170 X190.232 Y298.999
N38180 G2 X189.8 Y298.952 I-0.432 J1.953
N38190 G2 X187.8 Y300.946 I0 J2
N38200 G1 X187.734 Y321.775
N38210 X187.601 Y322.068
N38220 X187.414 Y322.193
N38230 X186.303 Y322.299
N38240 X183.978 Y321.952
N38250 G0 Z0
N38260 G0 X187.005 Y317.965
N38270 G0 Z-5
N38280 G1 Y301.003
N38290 G2 X185.005 Y299.003 I-2 J0
N38300 G2 X184.296 Y299.132 I0 J2
N38310 G1 X182.164 Y299.94
N38320 X181.641 Y300.235
N38330 X179.6 Y301.829
N38340 X179.207 Y302.239
N38350 X177.689 Y304.354
N38360 X177.419 Y304.881
N38370 X176.572 Y307.393
N38380 X176.478 Y307.824
N38390 X176.357 Y308.984
N38400 Y309.399
N38410 X176.599 Y311.717
N38420 X176.738 Y312.268
N38430 X177.747 Y314.726
N38440 X178.04 Y315.222
N38450 X179.687 Y317.264
N38460 X180.089 Y317.641
N38470 X181.969 Y318.972
N38480 X182.493 Y319.237
N38490 X184.373 Y319.862
N38500 G2 X185.005 Y319.965 I0.632 J-1.897
N38510 G2 X187.005 Y317.965 I0 J-2
N38520 G0 Z-2
N38530 G0 X186.825 Y318.201
N38540 G0 Z0
N38550 G0 X185.704 Y319.678
N38560 G0 Z-2
N38570 G0 X183.978 Y321.952
N38580 G1 Z-7
N38590 X181.742 Y321.1
N38600 X179.308 Y319.518
N38610 X177.3 Y317.433
N38620 X175.751 Y314.882
N38630 X174.906 Y312.52
N38640 X174.555 Y310.007
N38650 X174.71 Y307.406
N38660 X175.368 Y304.985
N38670 X176.78 Y302.305
N38680 X178.705 Y300.067
N38690 X181.099 Y298.315
N38700 X183.376 Y297.293
N38710 X185.853 Y296.742
N38720 X188.485 Y296.692
N38730 X190.997 Y297.143
N38740 X193.315 Y298.077
N38750 X195.761 Y299.734
N38760 X197.736 Y301.891
N38770 X199.212 Y304.502
N38780 X199.958 Y306.897
N38790 X200.209 Y309.475
N38800 X199.871 Y312.653
N38810 X199.105 Y314.982
N38820 X197.893 Y317.013
N38830 X196.426 Y318.501
N38840 X195.838 Y318.642
N38850 X195.377 Y318.55
N38860 X195.017 Y318.242
N38870 X194.953 Y318.052
N38880 X195.034 Y317.63
N38890 X195.958 Y316.386
N38900 X197.301 Y314.309
N38910 X197.536 Y313.8
N38920 X198.224 Y311.504
N38930 X198.308 Y310.948
N38940 X198.333 Y308.339
N38950 X198.249 Y307.747
N38960 X197.488 Y305.205
N38970 X197.26 Y304.706
N38980 X195.842 Y302.475
N38990 X195.482 Y302.051
N39000 X193.753 Y300.517
N39010 X193.251 Y300.191
N39020 X191.183 Y299.254
N39030 X190.789 Y299.123
N39040 X190.232 Y298.999
N39050 G2 X189.8 Y298.952 I-0.432 J1.953
N39060 G2 X187.8 Y300.946 I0 J2
N39070 G1 X187.734 Y321.775
N39080 X187.601 Y322.068
N39090 X187.414 Y322.193
N39100 X186.303 Y322.299
N39110 X183.978 Y321.952
N39120 G0 Z0
N39130 G0 X187.005 Y317.965
N39140 G0 Z-7
N39150 G1 Y301.003
N39160 G2 X185.005 Y299.003 I-2 J0
N39170 G2 X184.296 Y299.132 I0 J2
N39180 G1 X182.164 Y299.94
N39190 X181.641 Y300.235
N39200 X179.6 Y301.829
N39210 X179.207 Y302.239
N39220 X177.689 Y304.354
N39230 X177.419 Y304.881
N39240 X176.572 Y307.393
N39250 X176.478 Y307.824
N39260 X176.357 Y308.984
N39270 Y309.399
N39280 X176.599 Y311.717
N39290 X176.738 Y312.268
N39300 X177.747 Y314.726
N39310 X178.04 Y315.222
N39320 X179.687 Y317.264
N39330 X180.089 Y317.641
N39340 X181.969 Y318.972
N39350 X182.493 Y319.237
N39360 X184.373 Y319.862
N39370 G2 X185.005 Y319.965 I0.632 J-1.897
N39380 G2 X187.005 Y317.965 I0 J-2
N39390 G0 Z-4
N39400 G0 X186.825 Y318.201
N39410 G0 Z0
N39420 G0 X185.704 Y319.678
N39430 G0 Z-4
N39440 G0 X183.978 Y321.952
N39450 G1 Z-9
N39460 X181.742 Y321.1
N39470 X179.308 Y319.518
N39480 X177.3 Y317.433
N39490 X175.751 Y314.882
N39500 X174.906 Y312.52
N39510 X174.555 Y310.007
N39520 X174.71 Y307.406
N39530 X175.368 Y304.985
N39540 X176.78 Y302.305
N39550 X178.705 Y300.067
N39560 X181.099 Y298.315
N39570 X183.376 Y297.293
N39580 X185.853 Y296.742
N39590 X188.485 Y296.692
N39600 X190.997 Y297.143
N39610 X193.315 Y298.077
N39620 X195.761 Y299.734
N39630 X197.736 Y301.891
N39640 X199.212 Y304.502
N39650 X199.958 Y306.897
N39660 X200.209 Y309.475
N39670 X199.871 Y312.653
N39680 X199.105 Y314.982
N39690 X197.893 Y317.013
N39700 X196.426 Y318.501
N39710 X195.838 Y318.642
N39720 X195.377 Y318.55
N39730 X195.017 Y318.242
N39740 X194.953 Y318.052
N39750 X195.034 Y317.63
N39760 X195.958 Y316.386
N39770 X197.301 Y314.309
N39780 X197.536 Y313.8
N39790 X198.224 Y311.504
N39800 X198.308 Y310.948
N39810 X198.333 Y308.339
N39820 X198.249 Y307.747
N39830 X197.488 Y305.205
N39840 X197.26 Y304.706
N39850 X195.842 Y302.475
N39860 X195.482 Y302.051
N39870 X193.753 Y300.517
N39880 X193.251 Y300.191
N39890 X191.183 Y299.254
N39900 X190.789 Y299.123
N39910 X190.232 Y298.999
N39920 G2 X189.8 Y298.952 I-0.432 J1.953
N39930 G2 X187.8 Y300.946 I0 J2
N39940 G1 X187.734 Y321.775
N39950 X187.601 Y322.068
N39960 X187.414 Y322.193
N39970 X186.303 Y322.299
N39980 X183.978 Y321.952
N39990 G0 Z0
N40000 G0 X187.005 Y317.965
N40010 G0 Z-9
N40020 G1 Y301.003
N40030 G2 X185.005 Y299.003 I-2 J0
N40040 G2 X184.296 Y299.132 I0 J2
N40050 G1 X182.164 Y299.94
N40060 X181.641 Y300.235
N40070 X179.6 Y301.829
N40080 X179.207 Y302.239
N40090 X177.689 Y304.354
N40100 X177.419 Y304.881
N40110 X176.572 Y307.393
N40120 X176.478 Y307.824
N40130 X176.357 Y308.984
N40140 Y309.399
N40150 X176.599 Y311.717
N40160 X176.738 Y312.268
N40170 X177.747 Y314.726
N40180 X178.04 Y315.222
N40190 X179.687 Y317.264
N40200 X180.089 Y317.641
N40210 X181.969 Y318.972
N40220 X182.493 Y319.237
N40230 X184.373 Y319.862
N40240 G2 X185.005 Y319.965 I0.632 J-1.897
N40250 G2 X187.005 Y317.965 I0 J-2
N40260 G0 Z-6
N40270 G0 X186.825 Y318.201
N40280 G0 Z0
N40290 G0 X185.704 Y319.678
N40300 G0 Z-6
N40310 G0 X183.978 Y321.952
N40320 G1 Z-11
N40330 X181.742 Y321.1
N40340 X179.308 Y319.518
N40350 X177.3 Y317.433
N40360 X175.751 Y314.882
N40370 X174.906 Y312.52
N40380 X174.555 Y310.007
N40390 X174.71 Y307.406
N40400 X175.368 Y304.985
N40410 X176.78 Y302.305
N40420 X178.705 Y300.067
N40430 X181.099 Y298.315
N40440 X183.376 Y297.293
N40450 X185.853 Y296.742
N40460 X188.485 Y296.692
N40470 X190.997 Y297.143
N40480 X193.315 Y298.077
N40490 X195.761 Y299.734
N40500 X197.736 Y301.891
N40510 X199.212 Y304.502
N40520 X199.958 Y306.897
N40530 X200.209 Y309.475
N40540 X199.871 Y312.653
N40550 X199.105 Y314.982
N40560 X197.893 Y317.013
N40570 X196.426 Y318.501
N40580 X195.838 Y318.642
N40590 X195.377 Y318.55
N40600 X195.017 Y318.242
N40610 X194.953 Y318.052
N40620 X195.034 Y317.63
N40630 X195.958 Y316.386
N40640 X197.301 Y314.309
N40650 X197.536 Y313.8
N40660 X198.224 Y311.504
N40670 X198.308 Y310.948
N40680 X198.333 Y308.339
N40690 X198.249 Y307.747
N40700 X197.488 Y305.205
N40710 X197.26 Y304.706
N40720 X195.842 Y302.475
N40730 X195.482 Y302.051
N40740 X193.753 Y300.517
N40750 X193.251 Y300.191
N40760 X191.183 Y299.254
N40770 X190.789 Y299.123
N40780 X190.232 Y298.999
N40790 G2 X189.8 Y298.952 I-0.432 J1.953
N40800 G2 X187.8 Y300.946 I0 J2
N40810 G1 X187.734 Y321.775
N40820 X187.601 Y322.068
N40830 X187.414 Y322.193
N40840 X186.303 Y322.299
N40850 X183.978 Y321.952
N40860 G0 Z0
N40870 G0 X187.005 Y317.965
N40880 G0 Z-11
N40890 G1 Y301.003
N40900 G2 X185.005 Y299.003 I-2 J0
N40910 G2 X184.296 Y299.132 I0 J2
N40920 G1 X182.164 Y299.94
N40930 X181.641 Y300.235
N40940 X179.6 Y301.829
N40950 X179.207 Y302.239
N40960 X177.689 Y304.354
N40970 X177.419 Y304.881
N40980 X176.572 Y307.393
N40990 X176.478 Y307.824
N41000 X176.357 Y308.984
N41010 Y309.399
N41020 X176.599 Y311.717
N41030 X176.738 Y312.268
N41040 X177.747 Y314.726
N41050 X178.04 Y315.222
N41060 X179.687 Y317.264
N41070 X180.089 Y317.641
N41080 X181.969 Y318.972
N41090 X182.493 Y319.237
N41100 X184.373 Y319.862
N41110 G2 X185.005 Y319.965 I0.632 J-1.897
N41120 G2 X187.005 Y317.965 I0 J-2
N41130 G1 Z9
N41140 X182.054 Y330.25 Z17
N41150 Z-3
N41160 X198.983 Y330.287
N41170 X199.318 Y330.451
N41180 X199.479 Y330.685
N41190 X199.546 Y331.356
N41200 X199.417 Y331.71
N41210 X199.222 Y331.873
N41220 X198.484 Y332.019
N41230 X184.172 Y332.095
N41240 X183.63 Y332.173
N41250 X181.503 Y332.784
N41260 X180.925 Y333.057
N41270 X179.204 Y334.236
N41280 X178.731 Y334.691
N41290 X177.479 Y336.371
N41300 X177.187 Y336.929
N41310 X176.483 Y339.025
N41320 X176.379 Y339.662
N41330 Y342.028
N41340 X176.488 Y342.678
N41350 X177.191 Y344.728
N41360 X177.517 Y345.324
N41370 X178.769 Y346.899
N41380 X179.276 Y347.351
N41390 X180.996 Y348.425
N41400 X181.59 Y348.673
N41410 X184.004 Y349.252
N41420 X184.455 Y349.307
N41430 X198.991 Y349.415
N41440 X199.33 Y349.577
N41450 X199.479 Y349.791
N41460 X199.546 Y350.462
N41470 X199.424 Y350.787
N41480 X199.223 Y350.955
N41490 X198.495 Y351.099
N41500 X183.959 Y351.026
N41510 X181.364 Y350.507
N41520 X179.123 Y349.519
N41530 X177.306 Y348.12
N41540 X175.909 Y346.326
N41550 X174.954 Y344.141
N41560 X174.556 Y341.591
N41570 X174.709 Y339.404
N41580 X175.298 Y337.612
N41590 X176.602 Y335.658
N41600 X176.829 Y335.43
N41610 G2 X177.413 Y334.018 I-1.416 J-1.412
N41620 G2 X175.425 Y332.018 I-2 J0
N41630 G1 X164.627 Y331.95
N41640 X164.316 Y331.804
N41650 X164.171 Y331.594
N41660 X164.103 Y330.896
N41670 X164.229 Y330.565
N41680 X164.464 Y330.356
N41690 X165.125 Y330.213
N41700 X182.054 Y330.25
N41710 G0 Z0
N41720 G1 Z-5
N41730 X198.983 Y330.287
N41740 X199.318 Y330.451
N41750 X199.479 Y330.685
N41760 X199.546 Y331.356
N41770 X199.417 Y331.71
N41780 X199.222 Y331.873
N41790 X198.484 Y332.019
N41800 X184.172 Y332.095
N41810 X183.63 Y332.173
N41820 X181.503 Y332.784
N41830 X180.925 Y333.057
N41840 X179.204 Y334.236
N41850 X178.731 Y334.691
N41860 X177.479 Y336.371
N41870 X177.187 Y336.929
N41880 X176.483 Y339.025
N41890 X176.379 Y339.662
N41900 Y342.028
N41910 X176.488 Y342.678
N41920 X177.191 Y344.728
N41930 X177.517 Y345.324
N41940 X178.769 Y346.899
N41950 X179.276 Y347.351
N41960 X180.996 Y348.425
N41970 X181.59 Y348.673
N41980 X184.004 Y349.252
N41990 X184.455 Y349.307
N42000 X198.991 Y349.415
N42010 X199.33 Y349.577
N42020 X199.479 Y349.791
N42030 X199.546 Y350.462
N42040 X199.424 Y350.787
N42050 X199.223 Y350.955
N42060 X198.495 Y351.099
N42070 X183.959 Y351.026
N42080 X181.364 Y350.507
N42090 X179.123 Y349.519
N42100 X177.306 Y348.12
N42110 X175.909 Y346.326
N42120 X174.954 Y344.141
N42130 X174.556 Y341.591
N42140 X174.709 Y339.404
N42150 X175.298 Y337.612
N42160 X176.602 Y335.658
N42170 X176.829 Y335.43
N42180 G2 X177.413 Y334.018 I-1.416 J-1.412
N42190 G2 X175.425 Y332.018 I-2 J0
N42200 G1 X164.627 Y331.95
N42210 X164.316 Y331.804
N42220 X164.171 Y331.594
N42230 X164.103 Y330.896
N42240 X164.229 Y330.565
N42250 X164.464 Y330.356
N42260 X165.125 Y330.213
N42270 X182.054 Y330.25
N42280 G0 Z-2
N42290 G1 Z-7
N42300 X198.983 Y330.287
N42310 X199.318 Y330.451
N42320 X199.479 Y330.685
N42330 X199.546 Y331.356
N42340 X199.417 Y331.71
N42350 X199.222 Y331.873
N42360 X198.484 Y332.019
N42370 X184.172 Y332.095
N42380 X183.63 Y332.173
N42390 X181.503 Y332.784
N42400 X180.925 Y333.057
N42410 X179.204 Y334.236
N42420 X178.731 Y334.691
N42430 X177.479 Y336.371
N42440 X177.187 Y336.929
N42450 X176.483 Y339.025
N42460 X176.379 Y339.662
N42470 Y342.028
N42480 X176.488 Y342.678
N42490 X177.191 Y344.728
N42500 X177.517 Y345.324
N42510 X178.769 Y346.899
N42520 X179.276 Y347.351
N42530 X180.996 Y348.425
N42540 X181.59 Y348.673
N42550 X184.004 Y349.252
N42560 X184.455 Y349.307
N42570 X198.991 Y349.415
N42580 X199.33 Y349.577
N42590 X199.479 Y349.791
N42600 X199.546 Y350.462
N42610 X199.424 Y350.787
N42620 X199.223 Y350.955
N42630 X198.495 Y351.099
N42640 X183.959 Y351.026
N42650 X181.364 Y350.507
N42660 X179.123 Y349.519
N42670 X177.306 Y348.12
N42680 X175.909 Y346.326
N42690 X174.954 Y344.141
N42700 X174.556 Y341.591
N42710 X174.709 Y339.404
N42720 X175.298 Y337.612
N42730 X176.602 Y335.658
N42740 X176.829 Y335.43
N42750 G2 X177.413 Y334.018 I-1.416 J-1.412
N42760 G2 X175.425 Y332.018 I-2 J0
N42770 G1 X164.627 Y331.95
N42780 X164.316 Y331.804
N42790 X164.171 Y331.594
N42800 X164.103 Y330.896
N42810 X164.229 Y330.565
N42820 X164.464 Y330.356
N42830 X165.125 Y330.213
N42840 X182.054 Y330.25
N42850 G0 Z-4
N42860 G1 Z-9
N42870 X198.983 Y330.287
N42880 X199.318 Y330.451
N42890 X199.479 Y330.685
N42900 X199.546 Y331.356
N42910 X199.417 Y331.71
N42920 X199.222 Y331.873
N42930 X198.484 Y332.019
N42940 X184.172 Y332.095
N42950 X183.63 Y332.173
N42960 X181.503 Y332.784
N42970 X180.925 Y333.057
N42980 X179.204 Y334.236
N42990 X178.731 Y334.691
N43000 X177.479 Y336.371
N43010 X177.187 Y336.929
N43020 X176.483 Y339.025
N43030 X176.379 Y339.662
N43040 Y342.028
N43050 X176.488 Y342.678
N43060 X177.191 Y344.728
N43070 X177.517 Y345.324
N43080 X178.769 Y346.899
N43090 X179.276 Y347.351
N43100 X180.996 Y348.425
N43110 X181.59 Y348.673
N43120 X184.004 Y349.252
N43130 X184.455 Y349.307
N43140 X198.991 Y349.415
N43150 X199.33 Y349.577
N43160 X199.479 Y349.791
N43170 X199.546 Y350.462
N43180 X199.424 Y350.787
N43190 X199.223 Y350.955
N43200 X198.495 Y351.099
N43210 X183.959 Y351.026
N43220 X181.364 Y350.507
N43230 X179.123 Y349.519
N43240 X177.306 Y348.12
N43250 X175.909 Y346.326
N43260 X174.954 Y344.141
N43270 X174.556 Y341.591
N43280 X174.709 Y339.404
N43290 X175.298 Y337.612
N43300 X176.602 Y335.658
N43310 X176.829 Y335.43
N43320 G2 X177.413 Y334.018 I-1.416 J-1.412
N43330 G2 X175.425 Y332.018 I-2 J0
N43340 G1 X164.627 Y331.95
N43350 X164.316 Y331.804
